!!!!SEGMENT: pl-wtm--r-47-n--003_noskowski-zygmunt--quatuor-en-mi-mineur-largo-tragico.krn
!!!cenid: 18xx:2727
!!!COM: Noskowski, Zygmunt
!!!COM-rismid: pe106604
!!!CDT: 1846/05/02-1909/07/23
!!!CNT: Polish
!!!OPR: Quatuor en mi mineur
!!!OTL: Largo tragico
!!!OMV: 003
!!!PDT:
!!!AGN: Secular; String quartet
!!!SMS-siglum: PL-Wtm
!!!SMS-shelfmark: R 47/N
!!!SMS-shelfwork: 001-003 M
!!!SMS-variant:
!!!SMS-altvar:
!!!NIFC-rismid: 1001100158
!!!URL-scan: http://repozytorium.nifc.pl/skany/pl-wtm-nut--r47n
!!!ONB-nifc: UWAGA: części Kwartetu: 1. Allegro espressivo, 2. Moderato scherzando, 3. Largo tragico, 4. Allegro feroce
!!!key:
**kern	**dynam	**kern	**dynam	**kern	**dynam	**kern	**dynam	**fing
*part4	*part4	*part3	*part3	*part2	*part2	*part1	*part1	*part1
*staff4	*	*staff3	*	*staff2	*	*staff1	*	*
*Icello	*	*Iviola	*	*Icello	*	*Icello	*	*
*I"Violoncelle	*	*I"Viola	*	*I"Violon 2	*	*I"Violon 1	*	*
*clefF4	*	*clefC3	*	*clefG2	*	*clefG2	*	*
*k[f#c#g#d#]	*	*k[f#c#g#d#]	*	*k[f#c#g#d#]	*	*k[f#c#g#d#]	*	*
*c#:	*	*c#:	*	*c#:	*	*c#:	*	*
*M3/4	*	*M3/4	*	*M3/4	*	*M3/4	*	*
=1	=1	=1	=1	=1	=1	=1	=1	=1
!LO:TX:a:Bi:t=Largo tragico	!LO:DY:rj	!LO:TX:a:Bi:t=Largo tragico	!LO:DY:rj	!LO:TX:a:Bi:t=Largo tragico	!LO:DY:rj	!LO:TX:a:Bi:t=Largo tragico	!LO:DY:rj	!
2.CC#/	f	2.E/	f	2.Gn/	f	4a/	f	.
.	.	.	.	.	.	(4.B#X/	.	.
.	.	.	.	.	.	8c#/)	.	.
=2	=2	=2	=2	=2	=2	=2	=2	=2
!	!LO:HP:a	!	!	!	!	!	!	!
[2CC#/	>]	[2E/	>]	[2G#X/	>]	(8.d#/L	>	.
.	.	.	.	.	.	16e/Jk)	.	.
.	.	.	.	.	.	4.c#/	.	.
8CC#/]	.	8E/]	.	8G#/]	.	.	.	.
8r	.	8r	.	8r	.	(8cc#\	] p	.
=3	=3	=3	=3	=3	=3	=3	=3	=3
!	!LO:DY:rj	!	!LO:DY:rj	!	!LO:DY:rj	!	!	!
2.C#/	p	[2.A/	p	2.e/	p	4ee\)	.	2
.	.	.	.	.	.	(8dd#\L	.	.
.	.	.	.	.	.	8cc#\	.	.
.	.	.	.	.	.	8a\	.	.
.	.	.	.	.	.	8cc#\J)	.	2
=4	=4	=4	=4	=4	=4	=4	=4	=4
(4Dn\	.	4A/]	.	2.f#/	.	4cc#\	.	.
2D#X\)	.	(4.G#/	.	.	.	(4.b#/	.	1
!	!LO:HP:color=dodgerblue	!	!LO:HP:color=dodgerblue	!	!LO:HP:color=dodgerblue	!	!LO:HP:color=dodgerblue	!
.	<	.	<	.	<	.	<	.
.	.	8B#X/)	.	.	.	8g#/)	.	1
=5	=5	=5	=5	=5	=5	=5	=5	=5
4E\	.	(4.c#/	.	([2e/	.	(8a/L	.	.
.	[	.	[	.	[	8cc#/J)	[	.
2EE/	.	.	.	.	.	(4.g#/	.	.
.	.	8A/	.	.	.	.	.	.
.	.	4G#/)	.	8e/L]	.	.	.	.
.	.	.	.	8c#/J)	.	8e/)	.	1
=6	=6	=6	=6	=6	=6	=6	=6	=6
4DDn/	.	4A/	.	4dn/	.	(8f#/L	.	.
.	.	.	.	.	.	8a/J)	.	2
2GGn/	.	(8Gn/L	.	(4.B/	.	(4.dn/	.	2
.	.	8E/J	.	.	.	.	.	.
.	.	4Dn/)	.	.	.	.	.	.
.	.	.	.	8Gn/)	.	8B/)	.	.
!!LO:LB:g=original
=7	=7	=7	=7	=7	=7	=7	=7	=7
!	!	!LO:S:color=dodgerblue	!	!	!	!	!	!
8FF#/	.	(8D#X/L	.	4.G#X/	.	(8B#X/L	.	.
!	!LO:HP:color=dodgerblue	!	!LO:HP:color=dodgerblue	!	!LO:HP:color=dodgerblue	!	!LO:HP:color=dodgerblue	!
4EE/	<	8C#/J)	<	.	<	8c#/J)	<	.
.	.	(8c#/L	.	.	.	8g#/L	.	1
.	.	.	.	.	.	(8qbn/	.	.
8FF#/	[	8F#/J)	[	8c#/	[	8a/J)	.	.
!	!	!LO:S:color=dodgerblue	!	!	!	!	!	!
4GG#/	.	(8D#/L	.	4B#X/	.	8.g#/L	[	.
.	.	8F#/J)	.	.	.	.	.	.
.	.	.	.	.	.	(16d#X/Jk	.	2
=8	=8	=8	=8	=8	=8	=8	=8	=8
8..CC#/L	.	4.A/	.	4.B#X/	.	4.f#/)	.	2
32CC#/Jkk	.	.	.	.	.	.	.	.
4.CC#/	.	.	.	.	.	.	.	.
!	!	!LO:S:color=dodgerblue	!	!	!	!	!	!
.	.	(8G#/L	.	8c#/	.	(8e/L	.	3
.	.	8E/	.	8G#/	.	8c#/	.	.
8EE/	.	8C#/J)	.	8r	.	8G#/J)	.	.
=9	=9	=9	=9	=9	=9	=9	=9	=9
!	!	!LO:S:color=dodgerblue	!	!	!	!	!LO:DY:a	!
!	!	!LO:N:vis=8.	!	!	!	!	!	!
4FF#/	.	(8..C#/L	.	4r	>	(8A/L	.	.
!	!	!	!	!	!	!	!LO:HP:a	!
.	>	.	>	.	.	8c#/)	>	.
.	.	32D#/Jkk)	.	.	.	.	.	.
4GG#/	.	4E/	.	4G#/	.	(8G#/	.	.
.	.	.	.	.	.	8c#/)	.	.
4GG#/	]]	4F#/	]]	4G#/	]]	(8B#X/	.	.
.	.	.	.	.	.	8d#/J)	]]	.
=10	=10	=10	=10	=10	=10	=10	=10	=10
!LO:TX:b:B:t=A:color=dodgerblue	!	!	!	!	!	!LO:TX:a:B:t=A:color=dodgerblue	!	!
8CC#/	.	8E/	.	8G#/	.	8c#/	.	.
32r	.	32r	.	32r	.	8r	.	.
!	!	!	!	!	!LO:DY:rj	!	!	!
64r	.	64r	.	64r	p	.	.	.
!	!LO:DY:rj	!	!LO:DY:rj	!	!	!	!	!
64CC#u/	p	64Eu/	p	64G#u/	.	.	.	.
32.CC#/LLL	.	32.E/LLL	.	32.A/LLL	.	.	.	.
64CC#/JJJk	.	64E/JJJk	.	64c#/JJJk	.	.	.	.
!	!LO:HP:a	!	!LO:HP:a	!	!LO:HP:a	!	!	!
8CC#/	<	8E/	<	8c#/	<	4r	.	.
32r	.	32r	.	32r	.	.	.	.
64r	.	64r	.	64r	.	.	.	.
64CC#/	.	64E/	.	64B#X/	.	.	.	.
32.CC#/LLL	.	32.E/LLL	.	32.c#/LLL	.	.	.	.
64CC#/JJJk	.	64G#/JJJk	.	64e/JJJk	.	.	.	.
8CC#/	.	8G#/	.	8e/	.	4r	.	.
32r	[	32r	.	32r	.	.	.	.
64r	.	64r	.	64r	.	.	.	.
64CC#/	.	64E/	[	64c#/	[	.	.	.
32.CC#/LLL	.	32.F#/LLL	.	32.d#/LLL	.	.	.	.
64CC#/JJJk	.	64G#/JJJk	.	64eJJJk /	.	.	.	.
!!LO:LB:g=original
=11	=11	=11	=11	=11	=11	=11	=11	=11
*rep	*	*	*	*	*	*	*	*
8CC#/	<	8A/	<	8f#/	<	2.r	.	.
32r	.	32.r	.	32.r	.	.	.	.
64r	.	.	.	.	.	.	.	.
64CC#u/	.	64G#/	.	64e/	.	.	.	.
32.CC#/LLL	[	32.A/LLL	.	32.f#/LLL	.	.	.	.
64CC#/JJJk	.	64c#JJJk 64F#/	[	64a/JJJk	[	.	.	.
8CC#/	.	8c# 8F#/	.	8a/	.	.	.	.
32r	.	32.r	.	32.r	.	.	.	.
64r	.	.	.	.	.	.	.	.
64CC#/	.	64c# 64F#/	>	64d#/	>	.	.	.
32.CC#/LLL	.	32.c#LLL 32.F#/	.	32.e/LLL	.	.	.	.
64CC#/JJJk	>	64B#XJJJk 64F#/	.	64g#/JJJk	.	.	.	.
8CC#/	.	8B# 8F#/	.	8g#/	.	.	.	.
32r	.	32.r	.	32.r	.	.	.	.
64r	.	.	.	.	.	.	.	.
64CC#/	.	64B# 64F#/	.	64f#/	.	.	.	.
32.CC#/LLL	.	32.B#LLL 32.F#/	.	32.d#/LLL	.	.	.	.
64CC#/JJJk	]	64G#JJJk 64F#/	]	64e/JJJk	]	.	.	.
*Xrep	*	*	*	*	*	*	*	*
=12	=12	=12	=12	=12	=12	=12	=12	=12
*rep	*	*	*	*	*	*	*	*
!	!	!	!	!	!	!LO:TX:b:i:t=molto expressivo	!LO:DY:rj	!
8CC#/	.	8G# 8E/	.	8c#/	.	([2gg#\	p	.
32r	.	32.r	.	32.r	.	.	.	.
64r	.	.	.	.	.	.	.	.
64CC#u/	.	64E/	.	64G#/	.	.	.	.
32.CC#/LLL	.	32.E/LLL	.	32.A/LLL	.	.	.	.
64CC#/JJJk	.	64E/JJJk	.	64c#/JJJk	.	.	.	.
8CC#/	.	8E/	.	8c#/	.	.	.	.
32r	.	32.r	.	32.r	.	.	.	.
64r	.	.	.	.	.	.	.	.
64CC#/	.	64E/	.	64B#X/	.	.	.	.
32.CC#/LLL	.	32.E/LLL	.	32.c#/LLL	.	.	.	.
64CC#/JJJk	.	64G#/JJJk	.	64eJJJk 64c#/	.	.	.	.
8CC#/	.	8G#/	.	8e 8c#/	.	8gg#\L]	.	.
32r	.	32.r	.	32.r	.	8ccc#\J)	.	.
64r	<	.	<	.	<	.	.	.
64CC#/	.	64c# 64E/	.	64d#/	.	.	.	.
32.CC#/LLL	.	32.c#LLL 32.E/	.	32.e/LLL	.	.	.	.
64CC#/JJJk	[	64c#JJJk 64E/	[	64g#/JJJk	[	.	.	.
*Xrep	*	*	*	*	*	*	*	*
!!LO:LB:g=original
=13	=13	=13	=13	=13	=13	=13	=13	=13
*rep	*	*	*	*	*	*	*	*
8CC#/	.	8A/	.	8f#/	.	8ddd#~\L	<	.
32r	<	32.r	.	32.r	.	8eee~\J	.	.
64r	.	.	.	.	.	.	.	.
64CC#u/	.	64G#/	<	64e/	<	.	.	.
32.CC#/LLL	[	32.A/LLL	.	32.f#/LLL	.	.	.	.
64CC#/JJJk	.	64c#/JJJk	.	64g#/JJJk	.	.	[	.
8CC#/	.	8c# 8F#/	[	8a/	[	4.fff#\	.	.
32r	.	32.r	.	32.r	.	.	.	.
64r	.	.	.	.	.	.	.	.
64CC#/	.	64c# 64F#/	.	64d#/	.	.	.	.
32.CC#/LLL	.	32.c#LLL 32.F#/	>	32.e/LLL	>	.	.	.
64CC#/JJJk	>	64c#JJJk 64F#/	.	64f#/JJJk	.	.	.	.
8CC#/	.	8B#X 8F#/	.	8g#/	.	.	.	.
32r	.	32.r	.	32.r	.	(8ddd#\	.	.
64r	.	.	.	.	.	.	.	.
64CC#/	.	64B# 64F#/	.	64f#/	.	.	.	.
32.CC#/LLL	.	32.B#LLL 32.F#/	.	32.d#/LLL	.	.	.	.
64CC#/JJJk	]	64B#JJJk 64F#/	]	64e/JJJk	]]	.	.	.
*Xrep	*	*	*	*	*	*	*	*
=14	=14	=14	=14	=14	=14	=14	=14	=14
8CC#/	.	8c# 8E/	.	8c#/	.	2ggg#\)	.	.
32.r	.	32.r	.	32.r	.	.	.	.
64C#/	.	64E/	.	64B#X/	.	.	.	.
32.C#/LLL	.	32.E/LLL	.	32.c#/LLL	.	.	.	.
64C#/JJJk	.	64c#JJJk 64E/	.	64e/JJJk	.	.	.	.
8C#/	.	8c# 8E/	.	8g#/	.	.	.	.
32.r	.	32.r	.	32.r	.	.	.	.
64C#/	.	64e 64c#\	.	64f##X/	.	.	.	.
32.C#/LLL	.	32.eLLL 32.c#/	.	32.g#/LLL	.	.	.	.
64C#/JJJk	.	64eJJJk 64G#/	<	64cc#/JJJk	.	.	.	.
!	!	!	!	!	!LO:HP:a	!	!	!
8AA#X/	<	8e 8G#/	.	8cc#\	<	(8fff#\L	.	.
32.r	.	32.r	.	32.r	.	8eee\J)	.	.
64AA#/	.	64e 64G#/	.	64b#X\	.	.	.	.
32.AA#/LLL	[	32.eLLL 32.G#/	[	32.cc#\LLL	.	.	.	.
64AA#/JJJk	.	64eJJJk 64G#/	.	64ee\JJJk	[	.	.	.
!!LO:PB:g=original
=15	=15	=15	=15	=15	=15	=15	=15	=15
8BB/	.	8e 8G#/	.	8ee\	.	(4.eee\	.	.
32.r	.	32.r	.	32.r	.	.	.	.
64BB/	.	64e 64G#/	.	64cc#\	.	.	.	.
32.BB/LLL	.	32.eLLL 32.G#/	.	32.dd#\LLL	.	.	.	.
64BB/JJJk	.	64eJJJk 64G#/	.	64b\JJJk	.	.	.	.
8BB/	.	8e 8G#/	.	8b\	.	.	.	.
32.r	>	32.r	>	32.r	>	16ddd#\LL	.	.
64BB/	.	64e 64G#/	.	64g#/	.	.	.	.
32.BB/LLL	.	32.eLLL 32.G#/	.	32.a/LLL	.	16ccc#\JJ)	.	.
64BB/JJJk	]	64G#/JJJk	.	64cc#JJJk 64e/	]	.	.	.
8BB/	.	8F#/	]	8b 8d#/	.	(4aaT\	<	.
32.r	.	32.r	.	32.r	.	.	.	.
64BB/	.	64B 64D#/	.	64a/	.	.	.	.
32.BB/LLL	.	32.BLLL 32.D#/	.	32.f#LLL 32.A/	.	.	.	.
64BB/JJJk	.	64BJJJk 64D#/	.	64g#JJJk 64A/	.	.	[	.
.	.	.	.	.	.	16qqgg#/LL	.	.
.	.	.	.	.	.	16qqbb/	.	.
.	.	.	.	.	.	16qqaa/JJ)	.	.
=16	=16	=16	=16	=16	=16	=16	=16	=16
!LO:TX:B:b:t=B:color=dodgerblue	!	!	!	!	!	!LO:TX:a:B:t=B:color=dodgerblue	!	!
8BB 8EE/	.	8B 8E/	.	8e 8G#/	.	[4gg#\	mf	.
32.r	.	32.r	.	32.r	.	.	.	.
!	!	!	!	!	!LO:HP:a	!	!	!
64BB 64EE/	<	64B 64E/	<	64d# 64G#/	<	.	.	.
32.BBLLL 32.EE/	.	32.BLLL 32.E/	.	32.eLLL 32.G#/	[	.	.	.
64BBJJJk 64EE/	[	64eJJJk 64G#/	[	64g#JJJk 64B/	.	.	.	.
!	!	!	!	!	!	!LO:TUP:a	!	!
4BB 4EE/	.	4e 4G#/	.	4g# 4B/	.	24gg#\LL]	.	.
.	.	.	.	.	.	(24gg#\	<	.
.	.	.	.	.	.	24aa\JJ	.	.
!	!	!	!	!	!	!LO:TUP:a	!	!
.	.	.	.	.	.	24bb\LL)	.	.
.	.	.	.	.	.	24ccc#\	.	.
.	>	.	>	.	>	24eee\JJ	[	.
!	!	!	!	!	!	!LO:TUP:a	!	!
4BB 4EE/	.	4d# 4A/	.	4f# 4B/	.	(24ggg#\LL	>	.
.	]	.	]	.	]	24fff#\	.	.
.	.	.	.	.	.	24ddd#\JJ	.	.
*	*	*	*	*	*	*Xtuplet	*	*
.	.	.	.	.	.	24bb\LL)	.	.
.	.	.	.	.	.	24ccc#\	.	.
.	.	.	.	.	.	24aa\JJ	]]	.
!!LO:LB:g=original
=17	=17	=17	=17	=17	=17	=17	=17	=17
8BB 8EE/	.	8e 8G#/	.	8e 8B/	.	[4gg#\	.	.
32.r	.	32.r	.	32.r	.	.	.	.
64BB 64EE/	<	64G#/	<	64d# 64B/	<	.	.	.
32.BBLLL 32.EE/	.	32.G#/LLL	.	32.eLLL 32.B/	[	.	.	.
64BBJJJk 64EE/	.	64eJJJk 64G#/	[	64g#JJJk 64B/	.	.	.	.
[4BB [4EE/	[	[4e [4G#/	.	[4g# [4B/	.	24gg#\LL]	.	.
!	!LO:HP:t=cresc	!	!LO:HP:t=cresc	!	!LO:HP:t=cresc	!	!	!
.	<	.	<	.	<	(24gg#\	<	.
.	.	.	.	.	.	24aa\JJ	.	.
.	.	.	.	.	.	24aa#X\LL)	.	.
.	.	.	.	.	.	24bb\	.	.
.	.	.	.	.	.	24ccc#\JJ	.	.
8BB]L 8EE/]	.	8e]L 8G#/]	.	8g#]L 8B/]	.	(24ddd#\LL	.	.
.	.	.	.	.	.	24fff#\	.	.
.	.	.	.	.	.	24eee\JJ	.	.
8EEJ/	.	8eJ 8G#/	.	8g#J 8B/	.	24ddd#\LL)	.	.
.	.	.	.	.	.	24eee\	[	.
.	.	.	.	.	.	24ggg#\JJ	.	.
=18	=18	=18	=18	=18	=18	=18	=18	=18
!	!LO:DY:rj	!	!LO:DY:rj	!	!LO:DY:rj	!	!	!
4CC#/	f	8e 8G#/	f	8g# 8B/	f	[4bbb\	f	.
.	.	32.r	.	32.r	.	.	.	.
.	.	64G#/	.	64d# 64B/	.	.	.	.
.	.	32.G#/LLL	.	32.eLLL 32.B/	.	.	.	.
.	.	64eJJJk 64B/	.	64g#/JJJk	.	.	.	.
4FF#^/	.	4e 4A^/	.	4f#^/	.	24bbb\LL]	.	.
.	.	.	.	.	.	(24aaa\	.	.
.	.	.	.	.	.	24ggg#\JJ	.	.
.	.	.	.	.	.	24eee\LL	.	.
.	.	.	.	.	.	24ggg#\	.	.
.	.	.	.	.	.	24fff#\JJ)	.	.
8CC#/L	.	8e 8G#/	.	8g#/	.	(8.bbb\L	.	.
8EE/J	.	32.r	.	32.r	.	.	.	.
.	.	64d#u\	.	64g# 64G#u/	.	.	.	.
.	.	32.c#\LLL	.	32.g#LLL 32.G#/	.	16ggg#\Jk)	.	.
.	.	64c#\JJJk	.	64g#JJJk 64G#/	.	.	.	.
!!LO:PB:g=original
=19	=19	=19	=19	=19	=19	=19	=19	=19
4DD#/	.	8c#\	.	8f# 8A/	.	[4cccc#\	.	.
.	.	32.r	.	32.r	.	.	.	.
.	.	64c#\	.	64e#X 64A/	.	.	.	.
.	.	32.c#\LLL	.	32.f#LLL 32.A/	.	.	.	.
.	.	64f#JJJk 64c#\	.	64a/JJJk	.	.	.	.
4GG#^>/	.	4f# 4B^\	.	4g#^/	.	24cccc#\LL]	.	.
.	.	.	.	.	.	(24bbb\	.	.
.	.	.	.	.	.	24aaa\JJ	.	.
.	.	.	.	.	.	24fff#\LL	.	.
.	.	.	.	.	.	24aaa\	.	.
.	.	.	.	.	.	24ggg#\JJ)	.	.
4DD#/	.	8f# 8c#\	.	8a/	.	[4cccc#\	.	.
.	.	32.r	.	32.r	.	.	.	.
.	.	64f# 64c#u\	.	64au/	.	.	.	.
.	.	32.f#LLL 32.c#\	.	32.a/LLL	.	.	.	.
.	.	64eJJJk 64c#\	.	64g#/JJJk	.	.	.	.
=20	=20	=20	=20	=20	=20	=20	=20	=20
8DD#/	.	8d# 8c#\	.	8f##X/	.	8cccc#\L]	.	.
!	!	!	!	!LO:N:vis=32	!	!	!	!
32.r	<	32.r	<	32.r	<	[8cccc#\J	.	.
64DD#/	.	64d# 64c#\	.	64f##/	.	.	.	.
32.EE#X/LLL	.	32.d#LLL 32.c#\	.	32.g#/LLL	.	.	.	.
64FF##Xo</JJJk	[	64d#JJJk 64c#\	[	64a#X/JJJk	[	.	.	.
8GG#/	.	8d# 8B\	.	8b\	.	24cccc#\LL]	.	.
.	.	.	.	.	.	(24bbb\	.	.
.	.	.	.	.	.	24aaa#X\JJ	.	.
8r	.	8r	.	8r	.	24aaa#\LL)	.	.
.	.	.	.	.	.	24fff##X\	.	.
.	.	.	.	.	.	24eee\JJ	.	.
8r	.	8r	.	8r	.	24ddd#\LL	.	.
.	.	.	.	.	.	24ccc#\	.	.
.	.	.	.	.	.	24bb\JJ	.	.
!	!LO:DY:rj	!	!LO:DY:rj	!	!LO:DY:rj	!	!	!
8BBu/	f	8d#u\	f	8g# 8G#u/	f	(16.aaa#X\LL	.	.
.	.	.	.	.	.	32ggg#\JJk)	.	.
!!LO:LB:g=original
=21	=21	=21	=21	=21	=21	=21	=21	=21
!	!	!	!	!	!	!LO:N:acc=n#	!	!
32.C#/LLL	.	32.e\LLL	.	32.g#LLL 32.A#X/	.	[8fffn\L	.	.
64C#/K	.	64d#\K	.	64f##XK 64A#/	.	.	.	.
32.C#/	.	32.d#\	.	32.f## 32.A#/	.	.	.	.
64C#/JJJk	.	64e\JJJk	.	64g#JJJk 64A#/	.	.	.	.
8C#/	.	8e\	.	8g# 8A#/	.	24fff\L]	.	.
.	.	.	.	.	.	24eee\	.	.
.	.	.	.	.	.	24ddd#\JJ	.	.
[4C#^>/	.	[4e^\	.	[4g# [4A#^>/	.	24ccc#\LL	.	.
.	.	.	.	.	.	24aa#X\	.	.
.	.	.	.	.	.	(24bb\JJ	.	.
.	.	.	.	.	.	24ccc#\LL	.	.
.	.	.	.	.	.	24ddd#\	.	.
.	.	.	.	.	.	24eee\JJ	.	.
8C#/]	.	8e\]	.	8g#] 8A#/]	.	24ggg#\LL)	.	.
.	.	.	.	.	.	24fff\	.	.
.	.	.	.	.	.	24eee\JJ	.	.
8r	.	8r	.	8r	.	(24bb#X\LL	<	.
.	.	.	.	.	.	24ccc#\	.	.
.	.	.	.	.	.	[24eee\JJ	[	.
=22	=22	=22	=22	=22	=22	=22	=22	=22
!	!LO:DY:rj	!	!LO:DY:rj	!	!LO:DY:rj	!LO:TX:b:i:t=appassionato	!	!
8D#\	f	8d#\	f	8g# 8B/	f	24eee\LL])	.	.
.	.	.	.	.	.	24ccc##X\	.	.
.	.	.	.	.	.	[24ddd#^\JJ	.	.
4D#^\	.	4d# 4G#^\	.	4g# 4B^>/	.	24ddd#\LL]	.	.
.	.	.	.	.	.	24aa#X\	.	.
.	.	.	.	.	.	[24bb^\JJ	.	.
.	.	.	.	.	.	24bb\LL]	.	.
.	.	.	.	.	.	24ff##X\	.	.
.	.	.	.	.	.	[24aa#X^\JJ	.	.
*	*	*	*	*	*	*tuplet	*	*
!	!	!	!	!	!	!LO:TUP:a	!	!
8D#\	.	8d# 8G#\	.	8g# 8B/	.	48aa#\LLL]	.	.
.	.	.	.	.	.	(48gg#\	.	.
.	.	.	.	.	.	48ff##X\	.	.
.	.	.	.	.	.	48gg#\	.	.
.	.	.	.	.	.	48ee\	.	.
.	.	.	.	.	.	48dd#\JJJ	.	.
*	*	*	*	*	*	*Xtuplet	*	*
4r	.	4r	.	4r	.	48cc##X\LLL	.	.
.	.	.	.	.	.	48dd#\	.	.
.	.	.	.	.	.	48ee\	.	.
.	.	.	.	.	.	48dd#\	.	.
.	.	.	.	.	.	48gg#\	.	.
.	.	.	.	.	.	48b\JJJ	.	.
.	.	.	.	.	.	48a#X\LLL	.	.
.	.	.	.	.	.	48b\	.	.
.	.	.	.	.	.	48b#X\	.	.
!	!	!	!	!	!	!LO:N:acc=n#	!	!
.	.	.	.	.	.	48cc#X\	.	.
.	.	.	.	.	.	48cc##X\	.	.
.	.	.	.	.	.	48dd#\JJJ)	.	.
!!LO:PB:g=original
=23	=23	=23	=23	=23	=23	=23	=23	=23
!	!LO:DY:rj	!	!LO:DY:rj	!	!LO:DY:rj	!	!	!
8D#\	mf >	8c#\	mf >	8f##X 8A#X/	mf >	[8ee\L	.	.
4D#\	.	4c#\	.	4f## 4A#/	.	(24ee\L]	.	.
.	.	.	.	.	.	24g##X\	.	.
.	.	.	.	.	.	[24a#Xo\JJ	.	.
.	.	.	.	.	.	24a#\LL])	.	.
!	!	!	!	!	!	!	!LO:HP:t=diminuendo	!
.	.	.	.	.	.	(24ee\	>	.
.	.	.	.	.	.	[24dd#\JJ	.	.
8D#\	]	8c#\	]	8f## 8A#/	]	24dd#\LL])	.	.
.	.	.	.	.	.	24cc#\	.	.
.	.	.	.	.	.	24b\JJ	.	.
4r	.	4r	.	4r	.	24a#/LL	.	.
!	!	!	!	!	!	!LO:N:acc=n#	!	!
.	.	.	.	.	.	24g#X/	.	.
.	.	.	.	.	.	(24f##X/JJ	.	.
.	.	.	.	.	.	24e/LL	.	.
.	.	.	.	.	.	24d#/	.	.
.	.	.	.	.	.	24b/JJ)	.	.
=24	=24	=24	=24	=24	=24	=24	=24	=24
!LO:TX:b:B:t=C:color=dodgerblue	!LO:DY:rj	!	!LO:DY:rj	!	!LO:DY:rj	!LO:TX:a:B:t=C:color=dodgerblue	!LO:DY:rj	!
8D# 8GG#/	p	8B/	p	8d#/	p	(8a#X/L	p	.
32.r	.	32.r	.	32.r	.	8g#/J)	.	.
!	!	!LO:N:vis=32	!	!	!	!	!	!
64D# 64GG#u/	.	64Bu/	.	64d#u/	.	.	.	.
32.D#LLL 32.GG#/	.	32.B/LLL	.	32.e/LLL	.	.	.	.
!	!LO:HP:t=crescendo	!	!LO:HP:t=crescendo	!	!LO:HP:t=crescendo	!	!	!
64D#JJJk 64GG#/	<	64B/JJJk	<	64g#/JJJk	<	.	.	.
8D# 8GG#/	.	8B/	.	8g#/	.	4r	.	.
32r	.	32.r	.	32.r	.	.	.	.
32D# 32GG#/	.	.	.	.	.	.	.	.
.	.	64B/	.	64f##X/	.	.	.	.
32.D#LLL 32.GG#/	.	32.B/LLL	.	32.g#/LLL	.	.	.	.
64D#JJJk 64GG#/	.	64B/JJJk	.	64b/JJJk	.	.	.	.
8D# 8GG#/	.	8B/	.	8b/	.	8r	.	.
32.r	.	32.r	.	32.r	.	16r	.	.
64D# 64GG#/	.	64g# 64B\	.	64a#X/	.	.	.	.
32.D#LLL 32.GG#/	.	32.g#LLL 32.B\	.	32.b\LLL	.	16ddd#\	f	.
64D#JJJk 64GG#/	.	64g#JJJk 64B\	.	64dd#\JJJk	.	.	.	.
=25	=25	=25	=25	=25	=25	=25	=25	=25
!	!	!	!	!	!	!LO:TX:a:i:t=piangendo	!	!
8D# 8GG#/	>	8f##X 8c#\	>	8dd#\	>	(8..ddd#\L	.	.
32.r	.	32.r	.	32.r	.	.	.	.
64D# 64GG#/	.	64f## 64c#\	.	64cc#\	.	.	.	.
32.D#LLL 32.GG#/	.	32.f##LLL 32.c#\	.	32.b/LLL	.	.	.	.
!	!	!	!	!	!	!	!LO:HP:t=diminuendo	!
.	.	.	.	.	.	32eee\Jkk)	>	.
64D#JJJk 64GG#/	.	64f##JJJk 64c#\	]	64a#X/JJJk	.	.	.	.
4D# 4GG#/	]	4f## 4c#\	.	4a#/	]	(8..eee\L	.	.
.	.	.	.	.	.	32cc#\Jkk)	.	.
4r	.	4r	.	4r	.	(16cc#\KL	.	.
.	.	.	.	.	.	8bb\	.	.
.	.	.	.	.	.	16aa#X\Jk)	.	.
!!LO:LB:g=original
=26	=26	=26	=26	=26	=26	=26	=26	=26
!	!LO:DY:rj	!	!LO:DY:rj	!	!LO:DY:rj	!	!LO:DY:rj	!
8D# 8GG#/	p	8g# 8B\	p	8d#/	p	4ddd#\	p	.
!LO:N:vis=32	!	!	!	!	!	!	!	!
32.r	.	32.r	.	32.r	.	.	.	.
64D# 64GG#/	.	64B/	.	64d#/	.	.	.	.
!	!	!	!LO:HP:t=crescendo	!	!LO:HP:t=crescendo	!	!	!
32.D#LLL 32.GG#/	.	32.B/LLL	<	32.e/LLL	<	.	.	.
64D#JJJk 64GG#/	.	64B/JJJk	.	64g#/JJJk	.	.	.	.
8D# 8GG#/	.	8B/	.	8g#/	.	4r	.	.
32.r	.	32.r	.	32.r	.	.	.	.
64D# 64GG#/	.	64B/	.	64f##X/	.	.	.	.
32.D#LLL 32.GG#/	.	32.B/LLL	.	32.g#/LLL	.	.	.	.
64D#JJJk 64GG#/	.	64B/JJJk	.	64b/JJJk	.	.	.	.
8D# 8GG#/	.	8B/	.	8b/	.	8r	.	.
32.r	.	32.r	.	32.r	.	16r	.	.
64D# 64GG#/	.	64g# 64B\	.	64a#X/	.	.	.	.
32.D#LLL 32.GG#/	.	32.g#LLL 32.B\	.	32.b\LLL	.	16bb\	f	.
64D#JJJk 64GG#/	.	64g#JJJk 64B\	.	64dd#\JJJk	.	.	.	.
=27	=27	=27	=27	=27	=27	=27	=27	=27
!	!	!	!	!	!	!LO:N:vis=8.	!	!
8D# 8GG#/	>	8f##X 8c#\	>	8dd#\	>	(8..bb\L	.	.
32.r	.	32.r	.	32.r	.	.	.	.
64D# 64GG#/	.	64f## 64c#\	.	64cc#\	.	.	.	.
32.D#LLL 32.GG#/	.	32.f##LLL 32.c#\	]	32.b/LLL	.	.	.	.
.	.	.	.	.	.	32ccc#\Jkk)	.	.
!	!	!	!	!	!	!	!LO:HP:t=diminuendo	!
64D#JJJk 64GG#/	.	64f##JJJk 64c#\	.	64a#X/JJJk	.	.	>	.
!	!	!	!	!	!	!LO:N:vis=8.	!	!
8D# 8GG#/	]	8f## 8c#\	.	8a#/	]	(8..ccc#\L	.	.
8r	.	8r	.	8r	.	.	.	.
.	.	.	.	.	.	32a#X\Jkk)	.	.
4r	.	4r	.	4r	.	(16a#\KL	.	.
.	.	.	.	.	.	8gg#\	.	.
.	.	.	.	.	.	16ff##X\Jk)	.	.
=28	=28	=28	=28	=28	=28	=28	=28	=28
!	!LO:DY:rj	!	!LO:DY:rj	!	!LO:DY:rj	!	!LO:DY:rj	!
8D# 8GG#/	p	8g# 8B\	p	8d#/	p	4.bb^\	f	.
32.r	.	32.r	.	32.r	.	.	.	.
64GG#/	<	64B/	<	64d#/	<	.	.	.
32.GG#/LLL	.	32.B/LLL	.	32.d#/LLL	.	.	.	.
64GG#/JJJk	[	64d#JJJk 64G#/	[	64g#JJJk 64B/	[	.	.	.
!	!LO:DY:rj	!	!LO:DY:rj	!	!LO:DY:rj	!	!	!
2CC#/	f	2d# 2G#/	f	2g# 2B/	f	.	.	.
.	>	.	>	.	>	(8gg#\L	>	.
.	.	.	.	.	.	8ee\	.	.
.	]]	.	]]	.	]]	8cc#\J)	]	.
!!LO:LB:g=original
=29	=29	=29	=29	=29	=29	=29	=29	=29
!	!LO:DY:rj	!	!LO:DY:rj	!	!LO:DY:rj	!	!LO:DY:rj	!
8GG#/	p	8d# 8G#/	p	8g# 8B/	p	4.bb\	f	.
32.r	.	32.r	.	32.r	.	.	.	.
64GG#/	<	64B/	<	64d#/	<	.	.	.
32.GG#/LLL	.	32.B/LLL	.	32.d#/LLL	.	.	.	.
64GG#/JJJk	[	64d#JJJk 64G#/	[	64g#JJJk 64B/	[	.	.	.
!	!LO:DY:rj	!	!	!	!	!	!	!
2CC#/	f	2e 2G#/	f	2g# 2B/	f	.	.	.
.	>	.	>	.	>	(8gg#\L	>	.
.	.	.	.	.	.	8ee\	.	.
.	]]	.	]]	.	]]	8cc#\J)	]	.
=30	=30	=30	=30	=30	=30	=30	=30	=30
!	!LO:DY:rj	!	!LO:DY:rj	!	!LO:DY:rj	!	!LO:DY:rj	!
8CC#/	p	8e 8G#/	p	8g# 8B/	p	[2.gg#\	p	.
32.r	.	32.r	.	32.r	.	.	.	.
64CC#/	.	64e 64G#/	.	64g# 64B/	.	.	>	.
32.CC#/LLL	.	32.eLLL 32.G#/	.	32.g#LLL 32.B/	.	.	.	.
64CC#/JJJk	.	64eJJJk 64G#/	.	64g#JJJk 64B/	.	.	.	.
8EE/	.	8d# 8G#/	.	8g# 8B/	.	.	.	.
32.r	.	32.r	.	32.r	.	.	.	.
64EE/	<	64d# 64G#/	<	64g# 64B/	<	.	.	.
32.EE/LLL	.	32.d#LLL 32.G#/	[	32.g#LLL 32.B/	[	.	.	.
64EE/JJJk	[	64d#JJJk 64G#/	.	64g#JJJk 64B/	.	.	.	.
8BB^/	.	8c##X 8G#^/	.	8g# 8B^/	.	.	.	.
32.r	.	32.r	.	32.r	.	.	.	.
64BB/	>	64c## 64G#/	>	64g# 64B/	>	.	.	.
32.EE/LLL	.	32.c##LLL 32.G#/	.	32.g#LLL 32.B/	.	.	.	.
64EE/JJJk	.	64c##JJJk 64G#/	]]	64g#JJJk 64B/	.	.	.	.
=31	=31	=31	=31	=31	=31	=31	=31	=31
[4GG#/	]	[4d# [4G#/	.	[4g# [4B/	]	4gg#\_	.	.
8GG#/]	.	8d#] 8G#/]	.	8g#] 8B/]	.	8gg#\]	]	.
8r	.	8r	.	8r	.	8r	.	.
4r	.	4r	.	4r	.	4r	.	.
=32	=32	=32	=32	=32	=32	=32	=32	=32
!LO:TX:b:B:t=D:color=dodgerblue	!LO:DY:rj	!	!LO:DY:rj	!	!	!LO:TX:a:B:t=D:color=dodgerblue	!	!
4BB (4EE/	pp	(4G#/	pp	2.r	.	2.r	.	.
2BB 2EE'/)	.	2G#'/)	.	.	.	.	.	.
=33	=33	=33	=33	=33	=33	=33	=33	=33
4BB (4EE/	.	(4G#/	.	4r	.	2.r	.	.
2BB 2EE'/)	.	2G#'/)	.	4r	.	.	.	.
.	.	.	.	8r	.	.	.	.
.	.	.	.	16.r	.	.	.	.
!	!	!	!	!	!LO:DY:rj	!	!	!
.	.	.	.	32B/	f	.	.	.
!!LO:LB:g=original
=34	=34	=34	=34	=34	=34	=34	=34	=34
!	!LO:DY:rj	!	!LO:DY:rj	!LO:TX:a:i:t=solo	!	!	!	!
4BB 4EE^/	mf	4G#^/	mf	(8B/L	.	2.r	.	.
.	.	.	.	64c#/LLL	.	.	.	.
.	.	.	.	64d#/	.	.	.	.
.	.	.	.	64f#/	.	.	.	.
.	.	.	.	64e/	.	.	.	.
.	.	.	.	64d#/	.	.	.	.
.	.	.	.	64e/	.	.	.	.
.	.	.	.	64g#/	.	.	.	.
.	.	.	.	64a/JJJJ)	.	.	.	.
4r	.	4r	.	(4.b/	.	.	.	.
4GG#/	mf	4E/	mf	.	.	.	.	.
.	.	.	.	8B/)	.	.	.	.
=35	=35	=35	=35	=35	=35	=35	=35	=35
[2FF#/	.	(8C#/L	.	(4B/	.	2.r	.	.
.	.	16D#/L	.	.	.	.	.	.
.	.	16E#X/JJ)	.	.	.	.	.	.
.	.	8F#/L	.	8A/)	.	.	.	.
.	.	(8C#/	.	(4g#/	.	.	.	.
8FF#/L]	.	8B/	.	.	.	.	.	.
8AA/J	.	8A/J)	.	8f#/)	.	.	.	.
=36	=36	=36	=36	=36	=36	=36	=36	=36
!LO:S:color=dodgerblue	!	!	!	!	!	!	!	!
(8BB/L	.	2A/	.	4e/	.	2.r	.	.
8C#/	.	.	.	.	.	.	.	.
8D#/	.	.	.	(8d#/L	.	.	.	.
8E/J)	.	.	.	8c#/J	.	.	.	.
8D#/L	.	(8A/L	.	8.f#/L	.	.	.	.
8DD#/J	.	8F#/J)	.	.	.	.	.	.
.	.	.	.	16A/Jk)	.	.	.	.
=37	=37	=37	=37	=37	=37	=37	=37	=37
[2EE/	.	4A/	.	8.c#/L	.	4r	.	.
.	.	.	.	32d#/LL	.	.	.	.
.	.	.	.	32e/JJJ	.	.	.	.
!	!	!	!	!LO:TUP:num=3	!	!	!	!
.	.	[4G#/	.	(24a/LL	.	4r	.	.
.	.	.	.	24g#/	.	.	.	.
.	.	.	.	24d#/	.	.	.	.
.	.	.	.	24f#/	.	.	.	.
.	.	.	.	24e/	.	.	.	.
.	.	.	.	24c#/JJ)	.	.	.	.
8EE/]	.	8G#/]	.	8B/	.	8r	.	.
8r	.	8r	.	8r	.	16.r	.	.
.	.	.	.	.	.	32b\	f	.
=38	=38	=38	=38	=38	=38	=38	=38	=38
!	!LO:DY:rj	!	!LO:DY:rj	!	!LO:DY:rj	!	!	!
8BB 8EE^/	f	8B 8E^/	f	8g# 8B^>/	f	(8b\L	.	.
8r	.	8r	.	8r	.	64cc#\LLL	.	.
.	.	.	.	.	.	64dd#\	.	.
.	.	.	.	.	.	64ff#\	.	.
.	.	.	.	.	.	64ee\	.	.
.	.	.	.	.	.	64dd#\	.	.
.	.	.	.	.	.	64ee\	.	.
.	.	.	.	.	.	64gg#\	.	.
.	.	.	.	.	.	64aa\JJJJ)	.	.
[4GG#^/	.	4.B 4.E^/	.	8.b^/L	.	(4.bb\	.	.
.	.	.	.	(96a/LLL	.	.	.	.
.	.	.	.	96g#/	.	.	.	.
.	.	.	.	96f#/	.	.	.	.
.	.	.	.	96e/	.	.	.	.
.	.	.	.	96d#/	.	.	.	.
.	.	.	.	96c#/JJJJ	.	.	.	.
8GG#/L]	.	.	.	8B/L)	.	.	.	.
8FF#^/J	.	8f# 8dn^\	.	8ff#J 8b^/	.	8dddn\)	.	.
!!LO:PB:g=original
=39	=39	=39	=39	=39	=39	=39	=39	=39
8EE#X^>/	.	8g# 8c#^\	.	8gg# 8b^\	.	[4ccc#\	.	.
8r	.	(16c#\LL	.	(16e#X/LL	.	.	.	.
.	.	16d#X\JJ	.	16f#/JJ	.	.	.	.
4r	.	4e#X\)	.	8g#/L)	.	16ccc#\LL]	.	.
.	.	.	.	.	.	(16bb\	.	.
.	.	.	.	(8ddn/J	.	16aa\	.	.
.	.	.	.	.	.	16gg#\JJ	.	.
4r	.	[4f#\	.	[4cc#\	.	8bb\L)	.	.
.	.	.	.	.	.	[8aa\J	.	.
=40	=40	=40	=40	=40	=40	=40	=40	=40
!	!LO:DY:rj	!	!	!	!	!	!	!
4A\	p	4f#\]	.	4cc#\])	.	16aa\LL]	.	.
!	!	!	!LO:HP:t=diminuendo	!	!LO:HP:t=diminuendo	!	!LO:HP:t=diminuendo	!
.	.	.	>	.	>	(16aa\	>	.
.	.	.	.	.	.	16ff#\	.	.
.	.	.	.	.	.	16cc#\JJ)	.	.
[4B\	.	(8.f#\L	.	[4a/	.	(8ee\L	.	.
.	.	.	.	.	.	16dd#\L	.	.
.	.	16e\Jk	.	.	.	16cc#\JJ)	.	.
8B\]	.	8d#\)	.	8a/]	.	(16b\LL	.	.
.	.	.	.	.	.	16dd#\	.	.
8r	.	8r	.	8r	.	16ff#\	.	.
.	.	.	.	.	.	16gg#\JJ)	.	.
=41	=41	=41	=41	=41	=41	=41	=41	=41
!LO:TX:b:B:t=E:color=dodgerblue	!	!	!LO:DY:rj	!	!	!	!	!
8r	.	24e\LL	p	24g#'/LL	p	4ee\	.	.
.	.	24e\	.	24g#'/	.	.	.	.
.	.	24e\J	.	24g#'/J	.	.	.	.
!	!	!	!	!	!	!LO:TX:a:B:t=E:color=dodgerblue	!	!
32.r	.	[8e\J	.	[8g#/J	.	.	.	.
!	!LO:DY:rj	!	!	!	!	!	!	!
64DD#/	p	.	.	.	.	.	.	.
32.EE/LLL	.	.	.	.	.	.	.	.
64BB/JJJk	.	.	.	.	.	.	.	.
*	*	*Xtuplet	*	*Xtuplet	*	*	*	*
8BB/	.	24e\LL]	.	24g#/LL]	.	4r	.	.
.	.	24e\	.	24g#/	.	.	.	.
.	.	24e\J	.	24g#/J	.	.	.	.
32.r	.	[8e\J	.	[8g#/J	.	.	.	.
64AA#X/	.	.	.	.	.	.	.	.
32.BB/LLL	.	.	.	.	.	.	.	.
64E/JJJk	.	.	.	.	.	.	.	.
8E\	.	24e\LL]	.	24g#/LL]	.	4r	.	.
.	.	24e\	.	24g#/	.	.	.	.
.	.	24e\J	.	24g#/J	.	.	.	.
32.r	.	8e\J	.	8g#/J	.	.	.	.
64D#\	.	.	.	.	.	.	.	.
32.E\LLL	.	.	.	.	.	.	.	.
64B\JJJk	.	.	.	.	.	.	.	.
!!LO:LB:g=original
=42	=42	=42	=42	=42	=42	=42	=42	=42
!	!	!	!LO:DY:rj	!	!LO:DY:rj	!	!LO:DY:rj	!
8B\	.	24e\LL	pp	24g#/LL	pp	4ff#\	p	.
!	!	!	!	!	!	!LO:TX:a:t=dolce	!	!
.	.	24e\	.	24g#/	.	.	.	.
.	.	24e\J	.	24g#/J	.	.	.	.
8r	.	[8e\J	.	[8g#/J	.	.	.	.
4r	.	24e\LL]	.	24g#/LL]	.	(4.a#X/	.	.
.	.	24e\	.	24g#/	.	.	.	.
.	.	24e\J	.	24g#/J	.	.	.	.
.	.	[8e\J	.	[8g#/J	.	.	.	.
4r	.	24e\LL]	.	24g#/LL]	.	.	.	.
.	.	24e\	.	24g#/	.	.	.	.
.	.	24e\J	.	24g#/J	.	.	.	.
.	.	[8e\J	.	[8g#/J	.	8b/)	.	.
=43	=43	=43	=43	=43	=43	=43	=43	=43
4r	.	24e\LL]	.	24g#/LL]	.	(8.b#X/L	.	.
.	.	24e\	.	24g#/	.	.	.	.
.	.	24e\J	.	24g#/J	.	.	.	.
.	.	8e\J	.	8g#/J	.	.	.	.
.	.	.	.	.	.	16cc#/Jk)	.	.
8r	.	24eLL 24c#\	.	8a/	.	4a/	.	.
.	.	24e 24c#\	.	.	.	.	.	.
.	.	24eJ 24c#\	.	.	.	.	.	.
32.r	.	[8eJ [8c#\	.	8r	.	.	.	.
!	!LO:DY:rj	!	!	!	!	!	!	!
64DD#/	p	.	.	.	.	.	.	.
32.EE/LLL	.	.	.	.	.	.	.	.
64AA/JJJk	.	.	.	.	.	.	.	.
8AA/	.	24e]LL 24c#\]	.	24e/LL	.	4r	.	.
.	.	24c#\	.	24e/	.	.	.	.
.	.	24c#\J	.	24e/J	.	.	.	.
32.r	.	[8c#\J	.	[8e/J	.	.	.	.
64GG#/	.	.	.	.	.	.	.	.
32.AA/LLL	.	.	.	.	.	.	.	.
64E/JJJk	.	.	.	.	.	.	.	.
=44	=44	=44	=44	=44	=44	=44	=44	=44
!	!	!	!	!	!	!	!LO:DY:rj	!
8E\	.	24c#\LL]	.	24e/LL]	.	4aa\	p	.
.	.	24c#\	.	24e/	.	.	.	.
.	.	24c#\J	.	24e/J	.	.	.	.
8r	.	(8c#\J	.	[8aJ [8e/	.	.	.	.
4r	.	24e\LL)	.	24a]LL 24e/]	.	(4.b#X\	.	.
.	.	24e\	.	24a/	.	.	.	.
.	.	24e\J	.	24a/J	.	.	.	.
.	.	[8e\J	.	[8a/J	.	.	.	.
4r	.	24e\LL]	.	24a/LL]	.	.	.	.
.	.	24e\	.	24a/	.	.	.	.
.	.	24e\J	.	24a/J	.	.	.	.
.	.	(8e\J	.	(8a/J	.	8cc#\)	.	.
!!LO:LB:g=original
=45	=45	=45	=45	=45	=45	=45	=45	=45
4r	.	24e\LL)	.	24g#/LL)	.	(8.dd#\L	.	.
.	.	24e\	.	24g#/	.	.	.	.
.	.	24e\J	.	24g#/J	.	.	.	.
!	!	!	!LO:HP:t=cresc	!	!LO:HP:t=cresc	!	!	!
.	.	[8e\J	<	[8g#/J	<	.	.	.
.	.	.	.	.	.	16ee\Jk)	.	.
8r	.	24e\LL]	.	24g#/LL]	.	4bn/	.	.
.	.	24e\	.	24g#/	.	.	.	.
.	.	24e\J	.	24g#/J	.	.	.	.
32.r	mf	(8e\J	.	(8g#/J	<	.	.	.
64D#\	.	.	<	.	.	.	.	.
32.E\LLL	.	.	.	.	.	.	.	.
64B\JJJk	<	.	.	.	.	.	.	.
4A\	.	24d#\LL)	.	24f#/LL)	.	8r	.	.
.	.	24d#\	.	24f#/	.	.	.	.
.	.	24d#\J	.	24f#/J	[	.	.	.
.	[	8d#\J	[	8f#/J	.	16.r	.	.
.	.	.	.	.	.	32bb\	f	.
=46	=46	=46	=46	=46	=46	=46	=46	=46
!	!LO:DY:rj	!	!LO:DY:rj	!	!	!	!	!
8G#\	f	8e\	f	8g#/	f	(16bb\LL	.	.
.	.	.	.	.	.	16ff##X\)	.	.
8r	.	8r	.	8r	.	(16ff##\	.	.
.	.	.	.	.	.	16gg#\JJ)	.	.
4r	.	4r	.	4r	.	(16dd#\LL	.	.
!	!	!	!	!	!	!LO:N:acc=n#	!	!
.	.	.	.	.	.	16ff#X\)	.	.
.	.	.	.	.	.	16ff#'\	.	.
.	.	.	.	.	.	16ee'\JJ	.	.
4r	.	4r	.	4r	.	(16a#X/LL	.	.
.	.	.	.	.	.	16b/)	.	.
.	.	.	.	.	.	16b/	.	.
.	.	.	.	.	.	16g#/JJ	.	.
=47	=47	=47	=47	=47	=47	=47	=47	=47
4r	.	4r	.	2.r	.	(8an\L	.	.
.	.	.	.	.	.	64b\LLL	.	.
.	.	.	.	.	.	64cc#\	.	.
.	.	.	.	.	.	64ee\	.	.
.	.	.	.	.	.	64ddn\	.	.
.	.	.	.	.	.	64cc#\	.	.
.	.	.	.	.	.	64ee#X\	.	.
.	.	.	.	.	.	64ff#\	.	.
.	.	.	.	.	.	64gg#\JJJJ)	.	.
!	!	!	!LO:DY:rj	!	!	!	!	!
4r	.	(8F#/L	f	.	.	4.aa\	.	.
.	.	64G#/LLL	.	.	.	.	.	.
.	.	64A/	.	.	.	.	.	.
.	.	64dn/	.	.	.	.	.	.
.	.	64c#/	.	.	.	.	.	.
.	.	64B#X/	.	.	.	.	.	.
.	.	64c#/	.	.	.	.	.	.
.	.	64d#X/	.	.	.	.	.	.
.	.	64e#X/JJJJ)	.	.	.	.	.	.
!	!LO:DY:rj	!	!	!	!	!	!	!
(8BB\L	f	8f#\L	.	.	.	.	.	.
64D#\LLL	.	(8a\J	.	.	.	(8ff#\	.	.
64E\	.	.	.	.	.	.	.	.
64G#\	.	.	.	.	.	.	.	.
64F#\	.	.	.	.	.	.	.	.
64E#X\	.	.	.	.	.	.	.	.
64F#\	.	.	.	.	.	.	.	.
64G#\	.	.	.	.	.	.	.	.
64A\JJJJ)	.	.	.	.	.	.	.	.
!!LO:LB:g=original
=48	=48	=48	=48	=48	=48	=48	=48	=48
!	!	!	!	!	!LO:DY:rj	!	!	!
8B\L	.	8g#\)	.	(8e\L	f	4.gg#\)	.	.
8G#\J	.	8r	.	64f##X\LLL	.	.	.	.
.	.	.	.	64g#\	.	.	.	.
.	.	.	.	64cc#\	.	.	.	.
.	.	.	.	64b\	.	.	.	.
.	.	.	.	64a#X\	.	.	.	.
.	.	.	.	64b\	.	.	.	.
.	.	.	.	64cc#\	.	.	.	.
.	.	.	.	64dd#\JJJJ)	.	.	.	.
8E\L	.	4r	.	(8ee\L	.	.	.	.
8G#\J	.	.	.	8dd#\	.	(8ff#\L	.	.
[4A\	.	4r	.	8cc#\	.	8ee\	.	.
.	.	.	.	8an\J)	.	8cc#\J)	.	.
=49	=49	=49	=49	=49	=49	=49	=49	=49
!	!	!	!LO:DY:rj	!	!	!	!	!
16A\]	.	(8F#/L	f	4.cc#\	.	4.ee\	.	.
16r	.	.	.	.	.	.	.	.
8r	.	64G#/LLL	.	.	.	.	.	.
.	.	64A/	.	.	.	.	.	.
.	.	64dn/	.	.	.	.	.	.
.	.	64c#/	.	.	.	.	.	.
.	.	64B#X/	.	.	.	.	.	.
.	.	64c#/	.	.	.	.	.	.
.	.	64f#/	.	.	.	.	.	.
.	.	64g#/JJJJ)	.	.	.	.	.	.
(4F#\	>	8a\L	.	.	>	.	.	.
.	.	(8c#\	>	(8e/L	.	(8a/L	>	.
4BB/)	.	8d#X\	.	8a/	.	8cc#/	.	.
.	]	8A\J)	]	8d#/J)	]	8f#/J)	]]	.
=50	=50	=50	=50	=50	=50	=50	=50	=50
!	!LO:DY:rj	!	!LO:DY:rj	!	!	!	!	!
(8EE/L	f	(8.G#/L	f	[2e/	f	4g#/	f	.
64FF##X/LLL	.	.	.	.	.	.	.	.
64GG#/	.	.	.	.	.	.	.	.
64C#/	.	.	.	.	.	.	.	.
64BB/	.	.	.	.	.	.	.	.
64AA#X/	.	16e/Jk)	.	.	.	.	.	.
64BB/	.	.	.	.	.	.	.	.
64D#/	.	.	.	.	.	.	.	.
64E/JJJJ)	.	.	.	.	.	.	.	.
4F#\	.	8c#\	.	.	.	(8a\L	.	.
.	.	8r	.	.	.	64b\LLL	.	.
.	.	.	.	.	.	64cc#\	.	.
.	.	.	.	.	.	64ee\	.	.
.	.	.	.	.	.	64dd#\	.	.
.	.	.	.	.	.	64ee\	.	.
.	.	.	.	.	.	64ff#\	.	.
.	.	.	.	.	.	64gg#\	.	.
.	.	.	.	.	.	64aa\JJJJ)	.	.
8G#\	.	(8B\L	.	8e/]	.	(8.bb\L	<	.
8r	.	64c#\LLL	.	8r	.	.	.	.
.	.	64d#\	.	.	.	.	.	.
.	.	64f#\	.	.	.	.	.	.
.	.	64e\	.	.	.	.	.	.
.	.	64f#\	.	.	.	16eee\Jk)	[	.
.	.	64g#\	.	.	.	.	.	.
.	.	64a\	.	.	.	.	.	.
.	.	64b\JJJJ)	.	.	.	.	.	.
!!LO:PB:g=original
=51	=51	=51	=51	=51	=51	=51	=51	=51
!	!	!	!	!	!LO:DY:rj	!	!	!
4r	.	8cc#\	.	(8A/L	f	(8.eee\L	.	.
.	.	8r	.	64B/LLL	.	.	.	.
.	.	.	.	64c#/	.	.	.	.
.	.	.	.	64f#/	.	.	.	.
.	.	.	.	64e/	.	.	.	.
.	.	.	.	64d#/	.	16ccc#\Jk)	.	.
.	.	.	.	64e/	.	.	.	.
.	.	.	.	64g#/	.	.	.	.
.	.	.	.	64a/JJJJ	.	.	.	.
!	!	!	!LO:DY:rj	!	!	!	!	!
4r	.	(8d#\L	f	8b/)	.	4ff#\	.	.
.	.	64f#\LLL	.	8r	.	.	.	.
.	.	64a\	.	.	.	.	.	.
.	.	64cc#\	.	.	.	.	.	.
.	.	64b\	.	.	.	.	.	.
.	.	64a#X\	.	.	.	.	.	.
.	.	64b\	.	.	.	.	.	.
.	.	64cc#\)	.	.	.	.	.	.
.	.	64dd#\JJJJ	.	.	.	.	.	.
(8E\L	f	(4ee\	.	4r	.	(4gg#\	.	.
64F##X\LLL	.	.	.	.	.	.	.	.
64G#\	.	.	.	.	.	.	.	.
64c#\	.	.	.	.	.	.	.	.
64cn\	.	.	.	.	.	.	.	.
64B\	.	.	.	.	.	.	.	.
64c#X\	.	.	.	.	.	.	.	.
64d#\)	.	.	.	.	.	.	.	.
64e\JJJJ	.	.	.	.	.	.	.	.
=52	=52	=52	=52	=52	=52	=52	=52	=52
4f#\	.	4cc#\)	.	2.r	.	8bb\L)	.	.
.	.	.	.	.	.	(8aa\	>	.
(4.B\	>	(8a\L	>	.	.	8ff#\)	.	.
.	.	8a#X\	.	.	.	(8ee\	.	.
.	.	8b\	.	.	.	8gg#\	.	.
8B#X\)	]	8an\J)	]	.	.	8ff#\J)	]	.
=53	=53	=53	=53	=53	=53	=53	=53	=53
!LO:TX:b:B:t=F:color=dodgerblue	!LO:DY:rj	!	!LO:DY:rj	!LO:S:color=dodgerblue	!LO:DY:rj	!LO:TX:a:B:t=F:color=dodgerblue	!LO:DY:rj	!
8c#\	p	8g#\	p	(8c#/L	f	8ee\	p	.
8r	.	8r	.	64d#/LLL	.	8r	.	.
.	.	.	.	64e/	.	.	.	.
.	.	.	.	64a/	.	.	.	.
.	.	.	.	64g#/	.	.	.	.
.	.	.	.	64f##X/	.	.	.	.
.	.	.	.	64g#/	.	.	.	.
.	.	.	.	64a#X/	.	.	.	.
.	.	.	.	64b#X/JJJJ)	.	.	.	.
!	!LO:HP:t=cresc	!	!LO:HP:t=cresc	!	!	!	!LO:DY:rj	!
(8C#/L	<	4g#\	<	4cc#\	.	(8ee\L	f	.
8BB/J)	.	.	.	.	.	64ff##X\LLL	.	1
.	.	.	.	.	.	64gg#\	.	.
.	.	.	.	.	.	64aa\	.	.
.	.	.	.	.	.	64gg#\	.	.
.	.	.	.	.	.	64ff##\	.	.
.	.	.	.	.	.	64gg#\	.	.
.	.	.	.	.	.	64ccc#\	.	1
.	.	.	.	.	.	64ddd#\JJJJ)	.	.
(8AATT/L	.	4g# 4c#\	.	4cc# 4e/	.	4eee\	.	.
8AA#XTTT/J)	.	.	.	.	.	.	.	.
!!LO:LB:g=original
=54	=54	=54	=54	=54	=54	=54	=54	=54
!	!LO:DY:rj	!	!LO:DY:rj	!	!LO:DY:rj	!	!	!
8..BB/L	f	8..eL 8..G#/	f	8..bL 8..g#/	f	(8eeeTT\L	.	.
.	.	.	.	.	.	8ddd#TTT\	.	.
!	!LO:HP:t=dimin	!	!LO:HP:t=dimin	!	!LO:HP:t=dimin	!	!	!
32BB/Jkk	>	32eJkk 32G#/	>	32bJkk 32g#/	>	.	.	.
2BB/	.	2e 2G#/	.	2b 2g#/	.	8ccc#TTT\)	.	.
!	!	!	!	!	!	!LO:TX:a:t=P:problem=♮ above	!	!
.	.	.	.	.	.	(8cccnTTT\	.	.
!	!	!	!	!	!	!LO:TX:a:t=P:problem=# above	!	!
.	.	.	.	.	.	8bb#XTTT\	.	.
.	.	.	.	.	.	8gg#\JTTT)	.	.
=55	=55	=55	=55	=55	=55	=55	=55	=55
!	!LO:DY:rj	!	!LO:DY:rj	!	!LO:DY:rj	!	!LO:HP:t=diminuendo:dur=5q	!
8..BB/L	p	8..eL 8..G#/	p	8..g#L 8..B/	p	(8ff#TTT\L	>	.
.	.	.	.	.	.	8eeTTT\	.	.
32BB/Jkk	.	32eJkk 32G#/	.	32g#Jkk 32B/	.	.	.	.
2BB/	.	2e 2G#/	.	2B/	.	8cc#TTT\)	.	.
.	.	.	.	.	.	(8bTTT\	.	.
.	.	.	.	.	.	8a#XTTT\	.	.
.	.	.	.	.	.	8anTTT\J)	.	.
=56	=56	=56	=56	=56	=56	=56	=56	=56
[2BB/	.	4e 4B\	.	4B/	.	4g#TTT/	.	.
.	.	[4d# [4B\	.	[4A/	.	[4f#TTT/	.	.
8BB/]	.	8d#] 8B\]	.	8A/]	.	16f#/LL]	>	.
.	.	.	.	.	.	(16e#X/	.	.
8r	.	8r	.	8r	.	16f#/	.	.
.	.	.	.	.	.	16cc#/JJ)	]]	.
=57	=57	=57	=57	=57	=57	=57	=57	=57
!	!LO:DY:rj	!	!LO:DY:rj	!	!LO:DY:rj	!	!LO:DY:rj	!
4.EE/	p	8e\	p	([8G#/L	p	(8b/L	p	.
.	.	8r	.	64G#/LLL]	.	16e/Jk)	.	.
.	.	.	.	64A/	.	.	.	.
.	.	.	.	64c#/	.	.	.	.
.	.	.	.	64B/	.	.	.	.
.	.	.	.	64A#X/	.	16r	.	.
.	.	.	.	64B/	.	.	.	.
.	.	.	.	64e/	.	.	.	.
.	.	.	.	64f#/JJJJ)	.	.	.	.
!	!	!	!	!	!	!LO:N:vis=8.	!	!
.	.	4r	.	(8g#/L	.	(8..B/L	.	.
8BB 8EE/	.	.	.	16f#/L	.	.	.	.
.	.	.	.	16g#/JJ)	.	.	.	.
.	.	.	.	.	.	32b/Jkk)	.	.
4BB 4EE/	.	4r	.	4an 4d#/	.	(16b\LL	.	.
.	.	.	.	.	.	16cc#\	.	.
.	.	.	.	.	.	16b\	.	.
.	.	.	.	.	.	16cc#\JJ)	.	.
!!LO:LB:g=original
=58	=58	=58	=58	=58	=58	=58	=58	=58
!	!	!	!LO:DY:rj	!	!	!	!	!
4BB 4EE/	.	(8E/L	p	4g# 4B/	.	(8b/L	.	.
.	.	64G#/LLL	.	.	.	16e/Jk)	.	.
.	.	64A/	.	.	.	.	.	.
.	.	64c#/	.	.	.	.	.	.
.	.	64B/	.	.	.	.	.	.
.	.	64A#X/	.	.	.	16r	.	.
.	.	64B/	.	.	.	.	.	.
.	.	64c#/	.	.	.	.	.	.
.	.	64d#/JJJJ)	.	.	.	.	.	.
4r	.	(8e\L	.	4r	.	4r	.	.
.	.	16d#\L	.	.	.	.	.	.
.	.	16c#\JJ)	.	.	.	.	.	.
!	!LO:DY:rj	!	!	!	!LO:DY:rj	!	!LO:DY:rj	!
4BB 4EE/	p	4B/	.	4d# 4A/	p	(16g#/LL	p	.
.	.	.	.	.	.	16a/	.	.
.	.	.	.	.	.	16g#/	.	.
.	.	.	.	.	.	16a/JJ)	.	.
=59	=59	=59	=59	=59	=59	=59	=59	=59
4BB 4EE/	.	4B/	.	4e 4G#/	.	(8g#/L	.	.
.	.	.	.	.	.	8e/J)	.	.
(16EE/LL	.	4r	.	4r	.	4r	.	.
16FF#/	.	.	.	.	.	.	.	.
16EE/	.	.	.	.	.	.	.	.
16FF#/JJ)	.	.	.	.	.	.	.	.
!	!	!	!	!	!	!	!LO:DY:rj	!
8EE/	.	4r	.	4r	.	(16g#/LL	pp	.
.	.	.	.	.	.	16a/	.	.
8r	.	.	.	.	.	16g#/	.	.
.	.	.	.	.	.	16a/JJ)	.	.
=60	=60	=60	=60	=60	=60	=60	=60	=60
!	!LO:DY:rj	!	!LO:DY:rj	!	!LO:DY:rj	!	!	!
4BB 4EE/	pp	4B/	pp	4d# 4G#/	pp	(8g#/L	.	.
.	.	.	.	.	.	8d#/J)	.	.
(16EE/LL	.	4r	.	4r	.	4r	.	.
16FF#/	.	.	.	.	.	.	.	.
16EE/	.	.	.	.	.	.	.	.
16FF#/JJ)	.	.	.	.	.	.	.	.
(32EE/LLL	.	4r	.	4r	.	4r	.	.
32FF#/)	.	.	.	.	.	.	.	.
(32FF#/	.	.	.	.	.	.	.	.
32EE/)	.	.	.	.	.	.	.	.
(32EE/	.	.	.	.	.	.	.	.
32FF#/)	.	.	.	.	.	.	.	.
(32FF#/	.	.	.	.	.	.	.	.
32EE/JJJ)	.	.	.	.	.	.	.	.
=61	=61	=61	=61	=61	=61	=61	=61	=61
!	!	!	!LO:DY:rj	!	!LO:DY:rj	!	!LO:DY:rj	!
(32EE/LLL	.	4A/	pp	4c#/	pp	(8a/L	pp	.
32FF#/)	.	.	.	.	.	.	.	.
(32FF#/	.	.	.	.	.	.	.	.
32EE/)	.	.	.	.	.	.	.	.
(32EE/	.	.	.	.	.	8c#/J)	.	.
32FF#/)	.	.	.	.	.	.	.	.
(32FF#/	.	.	.	.	.	.	.	.
32EE/JJJ)	.	.	.	.	.	.	.	.
*rep	*	*	*	*	*	*	*	*
(32EE/LLL	.	4r	.	4r	.	4r	.	.
32FF#/)	.	.	.	.	.	.	.	.
(32FF#/	.	.	.	.	.	.	.	.
32EE/)	.	.	.	.	.	.	.	.
(32EE/	.	.	.	.	.	.	.	.
32FF#/)	.	.	.	.	.	.	.	.
(32FF#/	.	.	.	.	.	.	.	.
32EE/JJJ)	.	.	.	.	.	.	.	.
*Xrep	*	*	*	*	*	*	*	*
*rep	*	*	*	*	*	*	*	*
(32EE/LLL	.	4r	.	4r	.	4r	.	.
32FF#/)	.	.	.	.	.	.	.	.
(32FF#/	.	.	.	.	.	.	.	.
32EE/)	.	.	.	.	.	.	.	.
(32EE/	.	.	.	.	.	.	.	.
32FF#/)	.	.	.	.	.	.	.	.
(32FF#/	.	.	.	.	.	.	.	.
32EE/JJJ)	.	.	.	.	.	.	.	.
*Xrep	*	*	*	*	*	*	*	*
!!LO:LB:g=original
=62	=62	=62	=62	=62	=62	=62	=62	=62
!LO:TX:b:B:t=G:color=dodgerblue:rj	!	!	!LO:DY:rj	!	!LO:DY:rj	!LO:TX:a:B:t=G:color=dodgerblue	!LO:DY:rj	!
4EE/	.	4A 4Gn/	pp	4c#/	pp	(8a/L	pp	.
.	.	.	.	.	.	8c#/J)	.	.
!	!LO:DY:t=sempre pianissimo possibile:dur=4q	!	!	!	!	!	!	!
(32EE/LLL	ppp	4r	.	4r	.	4r	.	.
32FF#/)	.	.	.	.	.	.	.	.
(32FF#/	.	.	.	.	.	.	.	.
32EE/JJJ)	.	.	.	.	.	.	.	.
(32EE/LLL	.	.	.	.	.	.	.	.
32AA/)	.	.	.	.	.	.	.	.
(32AA/	.	.	.	.	.	.	.	.
32EE/JJJ)	.	.	.	.	.	.	.	.
(32DD#/LLL	.	4r	.	4r	.	4r	.	.
32AA/)	.	.	.	.	.	.	.	.
(32AA/	.	.	.	.	.	.	.	.
32DD#/JJJ)	.	.	.	.	.	.	.	.
(32DDn/LLL	.	.	.	.	.	.	.	.
32AA/)	.	.	.	.	.	.	.	.
(32AA/	.	.	.	.	.	.	.	.
32DD/JJJ)	.	.	.	.	.	.	.	.
=63	=63	=63	=63	=63	=63	=63	=63	=63
!	!	!	!LO:DY:t=sempre pianissimo possibile:dur=3q	!	!	!	!	!
(32CC#/LLL	.	(32E/LLL	ppp	4r	.	4r	.	.
32AA/)	.	32F#/)	.	.	.	.	.	.
(32AA/	.	(32F#/	.	.	.	.	.	.
32CC#/)	.	32E/)	.	.	.	.	.	.
(32CC#/	.	(32E/	.	.	.	.	.	.
32AA/)	.	32F#/)	.	.	.	.	.	.
(32AA/	.	(32F#/	.	.	ppp	.	.	.
32CC#/JJJ)	.	32E/JJJ)	.	.	.	.	.	.
*rep	*	*rep	*	*	*	*	*	*
!	!	!	!	!	!LO:DY:a:t=sempre pianissimo possibile:dur=3q	!	!	!
(32CC#/LLL	.	(32E/LLL	.	(32Gn/LLL	ppp	8r	.	.
32AA/)	.	32F#/)	.	32A/)	.	.	.	.
(32AA/	.	(32F#/	.	(32A/	.	.	.	.
32CC#/)	.	32E/)	.	32G/)	.	.	.	.
!	!	!	!	!	!	!	!LO:DY:rj	!
(32CC#/	.	(32E/	.	(32G/	.	4a/	p	.
32AA/)	.	32F#/)	.	32A/)	.	.	.	.
(32AA/	.	(32F#/	.	(32A/	.	.	.	.
32CC#/JJJ)	.	32E/JJJ)	.	32G/JJJ)	.	.	.	.
*Xrep	*	*Xrep	*	*	*	*	*	*
*rep	*	*rep	*	*rep	*	*	*	*
(32CC#/LLL	.	(32E/LLL	.	(32G/LLL	.	.	.	.
32AA/)	.	32F#/)	.	32A/)	.	.	.	.
(32AA/	.	(32F#/	.	(32A/	.	.	.	.
32CC#/)	.	32E/)	.	32G/)	.	.	.	.
(32CC#/	.	(32E/	.	(32G/	.	8a/	.	.
32AA/)	.	32F#/)	.	32A/)	.	.	.	.
(32AA/	.	(32F#/	.	(32A/	.	.	.	.
32CC#/JJJ)	.	32E/JJJ)	.	32G/JJJ)	.	.	.	.
*Xrep	*	*Xrep	*	*Xrep	*	*	*	*
=64	=64	=64	=64	=64	=64	=64	=64	=64
(32CC#/LLL	.	(32E/LLL	.	(32Gn/LLL	.	4a/	.	.
32AA/)	.	32F#/)	.	32A/)	.	.	.	.
!	!	!	!	!	!	!LO:TX:a:i:t=espressivo	!	!
(32AA/	.	(32F#/	.	(32A/	.	.	.	.
32CC#/)	.	32E/)	.	32G/)	.	.	.	.
(32CC#/	.	(32E/	.	(32G/	.	.	.	.
32AA/)	.	32F#/)	.	32A/)	.	.	.	.
(32AA/	.	(32F#/	.	(32A/	.	.	.	.
32CC#/JJJ)	.	32E/JJJ)	.	32G/JJJ)	.	.	.	.
*rep	*	*rep	*	*rep	*	*	*	*
(32CC#/LLL	.	(32E/LLL	.	(32G/LLL	.	(4.B#X/	.	.
32AA/)	.	32F#/)	.	32A/)	.	.	.	.
(32AA/	.	(32F#/	.	(32A/	.	.	.	.
32CC#/)	.	32E/)	.	32G/)	.	.	.	.
(32CC#/	.	(32E/	.	(32G/	.	.	.	.
32AA/)	.	32F#/)	.	32A/)	.	.	.	.
(32AA/	.	(32F#/	.	(32A/	.	.	.	.
32CC#/JJJ)	.	32E/JJJ)	.	32G/JJJ)	.	.	.	.
*Xrep	*	*Xrep	*	*Xrep	*	*	*	*
*rep	*	*rep	*	*rep	*	*	*	*
(32CC#/LLL	.	(32E/LLL	.	(32G/LLL	.	.	.	.
32AA/)	.	32F#/)	.	32A/)	.	.	.	.
(32AA/	.	(32F#/	.	(32A/	.	.	.	.
32CC#/)	.	32E/)	.	32G/)	.	.	.	.
(32CC#/	.	(32E/	.	(32G/	.	8c#/)	.	.
32AA/)	.	32F#/)	.	32A/)	.	.	.	.
(32AA/	.	(32F#/	.	(32A/	.	.	.	.
32CC#/JJJ)	.	32E/JJJ)	.	32G/JJJ)	.	.	.	.
*Xrep	*	*Xrep	*	*Xrep	*	*	*	*
!!LO:PB:g=original
=65	=65	=65	=65	=65	=65	=65	=65	=65
(32CC#/LLL	.	(32E/LLL	.	(32G#X/LLL	.	(8.d#/L	.	.
32GG#/)	.	32F#/)	.	32A/)	.	.	.	.
(32GG#/	.	(32F#/	.	(32A/	.	.	.	.
32CC#/)	.	32E/)	.	32G#/)	.	.	.	.
(32CC#/	.	(32E/	.	(32G#/	.	.	.	.
32GG#/)	.	32F#/)	.	32A/)	.	.	.	.
(32GG#/	.	(32F#/	.	(32A/	.	16e/Jk)	.	.
32CC#/JJJ)	.	32E/JJJ)	.	32G#/JJJ)	.	.	.	.
*rep	*	*rep	*	*rep	*	*	*	*
(32CC#/LLL	.	(32E/LLL	.	(32G#/LLL	.	4.c#/	.	.
32GG#/)	.	32F#/)	.	32A/)	.	.	.	.
(32GG#/	.	(32F#/	.	(32A/	.	.	.	.
32CC#/)	.	32E/)	.	32G#/)	.	.	.	.
(32CC#/	.	(32E/	.	(32G#/	.	.	.	.
32GG#/)	.	32F#/)	.	32A/)	.	.	.	.
(32GG#/	.	(32F#/	.	(32A/	.	.	.	.
32CC#/JJJ)	.	32E/JJJ)	.	32G#/JJJ)	.	.	.	.
*Xrep	*	*Xrep	*	*Xrep	*	*	*	*
*rep	*	*rep	*	*rep	*	*	*	*
(32CC#/LLL	.	(32E/LLL	.	(32G#/LLL	.	.	.	.
32GG#/)	.	32F#/)	.	32A/)	.	.	.	.
(32GG#/	.	(32F#/	.	(32A/	.	.	.	.
32CC#/)	.	32E/)	.	32G#/)	.	.	.	.
(32CC#/	.	(32E/	.	(32G#/	.	(8cc#\	<	.
32GG#/)	.	32F#/)	.	32A/)	.	.	.	.
(32GG#/	.	(32F#/	.	(32A/	.	.	.	.
32CC#/JJJ)	.	32E/JJJ)	.	32G#/JJJ)	.	.	.	.
*Xrep	*	*Xrep	*	*Xrep	*	*	*	*
=66	=66	=66	=66	=66	=66	=66	=66	=66
(32CC#/LLL	.	(32E/LLL	.	(32A/LLL	.	4ee\)	[	.
32EE/)	.	32C#/)	.	32B/)	.	.	.	.
(32EE/	.	(32C#/	.	(32B/	.	.	.	.
32CC#/)	.	32E/)	.	32A/)	.	.	.	.
(32CC#/	.	(32E/	.	(32A/	.	.	.	.
32EE/)	.	32C#/)	.	32B/)	.	.	.	.
(32EE/	.	(32C#/	.	(32B/	.	.	.	.
32CC#/JJJ)	.	32E/JJJ)	.	32A/JJJ)	.	.	.	.
*rep	*	*rep	*	*rep	*	*	*	*
(32CC#/LLL	.	(32E/LLL	.	(32A/LLL	.	(8dd#\L	>	.
32EE/)	.	32C#/)	.	32B/)	.	.	.	.
(32EE/	.	(32C#/	.	(32B/	.	.	.	.
32CC#/)	.	32E/)	.	32A/)	.	.	.	.
(32CC#/	.	(32E/	.	(32A/	.	8cc#\	.	.
32EE/)	.	32C#/)	.	32B/)	.	.	.	.
(32EE/	.	(32C#/	.	(32B/	.	.	.	.
32CC#/JJJ)	.	32E/JJJ)	.	32A/JJJ)	.	.	.	.
*Xrep	*	*Xrep	*	*Xrep	*	*	*	*
*rep	*	*rep	*	*rep	*	*	*	*
(32CC#/LLL	.	(32E/LLL	.	(32A/LLL	.	8a\	.	.
32EE/)	.	32C#/)	.	32B/)	.	.	.	.
(32EE/	.	(32C#/	.	(32B/	.	.	.	.
32CC#/)	.	32E/)	.	32A/)	.	.	.	.
(32CC#/	.	(32E/	.	(32A/	.	8cc#\J)	]	.
32EE/)	.	32C#/)	.	32B/)	.	.	.	.
(32EE/	.	(32C#/	.	(32B/	.	.	.	.
32CC#/JJJ)	.	32E/JJJ)	.	32A/JJJ)	.	.	.	.
*Xrep	*	*Xrep	*	*Xrep	*	*	*	*
=67	=67	=67	=67	=67	=67	=67	=67	=67
(32DDn/LLL	.	(32F#/LLL	.	(32A/LLL	.	4cc#\	.	.
32FF#/)	.	32Dn/)	.	32c#/)	.	.	.	.
(32FF#/	.	(32D/	.	(32c#/	.	.	.	.
32DD/)	.	32F#/)	.	32A/)	.	.	.	.
(32DD/	.	(32F#/	.	(32A/	.	.	.	.
32FF#/)	.	32D/)	.	32c#/)	.	.	.	.
(32FF#/	.	(32D/	.	(32c#/	.	.	.	.
32DD/JJJ)	.	32F#/JJJ)	.	32A/JJJ)	.	.	.	.
(32DD#X/LLL	.	(32F#/LLL	.	(32G#/LLL	.	(4.b#X/	.	.
32FF#/)	.	32D#X/)	.	32B#X/)	.	.	.	.
(32FF#/	.	(32D#/	.	(32B#/	.	.	.	.
32DD#/)	.	32F#/)	.	32G#/)	.	.	.	.
(32DD#/	.	(32F#/	.	(32G#/	.	.	.	.
32FF#/)	.	32D#/)	.	32B#/)	.	.	.	.
(32FF#/	.	(32D#/	.	(32B#/	.	.	.	.
32DD#/JJJ)	.	32F#/JJJ)	.	32G#/JJJ)	.	.	.	.
*rep	*	*rep	*	*rep	*	*	*	*
(32DD#/LLL	.	(32F#/LLL	.	(32G#/LLL	.	.	.	.
32FF#/)	.	32D#/)	.	32B#/)	.	.	.	.
(32FF#/	.	(32D#/	.	(32B#/	.	.	.	.
32DD#/)	.	32F#/)	.	32G#/)	.	.	.	.
(32DD#/	.	(32F#/	.	(32G#/	.	8g#/)	.	.
32FF#/)	.	32D#/)	.	32B#/)	.	.	.	.
(32FF#/	.	(32D#/	.	(32B#/	.	.	.	.
32DD#/JJJ)	.	32F#/JJJ)	.	32G#/JJJ)	.	.	.	.
*Xrep	*	*Xrep	*	*Xrep	*	*	*	*
!!LO:LB:g=original
=68	=68	=68	=68	=68	=68	=68	=68	=68
(32EE/LLL	.	(32C#/LLL	.	(32A/LLL	.	(8.a/L	.	.
32AA/)	.	32E/)	.	32c#/)	.	.	.	.
(32AA/	.	(32E/	.	(32c#/	.	.	.	.
32EE/)	.	32C#/)	.	32A/)	.	.	.	.
(32EE/	.	(32C#/	.	(32A/	.	.	.	.
32AA/)	.	32E/)	.	32c#/)	.	.	.	.
(32AA/	.	(32E/	.	(32c#/	.	16cc#/Jk)	.	.
32EE/JJJ)	.	32C#/JJJ)	.	32A/JJJ)	.	.	.	.
*	*	*rep	*	*	*	*	*	*
(32EE/LLL	.	(32C#/LLL	.	(32G#/LLL	.	(4.g#/	.	.
32GG#/)	.	32E/)	.	32c#/)	.	.	.	.
(32GG#/	.	(32E/	.	(32c#/	.	.	.	.
32EE/)	.	32C#/)	.	32G#/)	.	.	.	.
(32EE/	.	(32C#/	.	(32G#/	.	.	.	.
32GG#/)	.	32E/)	.	32c#/)	.	.	.	.
(32GG#/	.	(32E/	.	(32c#/	.	.	.	.
32EE/JJJ)	.	32C#/JJJ)	.	32G#/JJJ)	.	.	.	.
*	*	*Xrep	*	*	*	*	*	*
*rep	*	*rep	*	*rep	*	*	*	*
(32EE/LLL	.	(32C#/LLL	.	(32G#/LLL	.	.	.	.
32GG#/)	.	32E/)	.	32c#/)	.	.	.	.
(32GG#/	.	(32E/	.	(32c#/	.	.	.	.
32EE/)	.	32C#/)	.	32G#/)	.	.	.	.
(32EE/	.	(32C#/	.	(32G#/	.	8e/)	.	.
32GG#/)	.	32E/)	.	32c#/)	.	.	.	.
(32GG#/	.	(32E/	.	(32c#/	.	.	.	.
32EE/JJJ)	.	32C#/JJJ)	.	32G#/JJJ)	.	.	.	.
*Xrep	*	*Xrep	*	*Xrep	*	*	*	*
=69	=69	=69	=69	=69	=69	=69	=69	=69
(32DDn/LLL	.	(32F#/LLL	.	(32A/LLL	.	(8.f#/L	.	.
32FF#/)	.	32Dn/)	.	32dn/)	.	.	.	.
(32FF#/	.	(32D/	.	(32d/	.	.	.	.
32DD/)	.	32F#/)	.	32A/)	.	.	.	.
(32DD/	.	(32F#/	.	(32A/	.	.	.	.
32FF#/)	.	32D/)	.	32d/)	.	.	.	.
(32FF#/	.	(32D/	.	(32d/	.	16a/Jk)	.	.
32DD/JJJ)	.	32F#/JJJ)	.	32A/JJJ)	.	.	.	.
(32GGn/LLL	.	(32Gn/LLL	.	(32B/LLL	.	(4.dn/	.	.
32BB/)	.	32D/)	.	32d/)	.	.	.	.
(32BB/	.	(32D/	.	(32d/	.	.	.	.
32GG/)	.	32G/)	.	32B/)	.	.	.	.
(32GG/	.	(32G/	.	(32B/	.	.	.	.
32BB/)	.	32D/)	.	32d/)	.	.	.	.
(32BB/	.	(32D/	.	(32d/	.	.	.	.
32GG/JJJ)	.	32G/JJJ)	.	32B/JJJ)	.	.	.	.
*rep	*	*rep	*	*	*	*	*	*
(32GG/LLL	.	(32G/LLL	.	(32B/LLL	.	.	.	.
32BB/)	.	32D/)	.	32Gn/)	.	.	.	.
(32BB/	.	(32D/	.	(32G/	.	.	.	.
32GG/)	.	32G/)	.	32B/)	.	.	.	.
(32GG/	.	(32G/	.	(32B/	.	8B/)	.	.
32BB/)	.	32D/)	.	32G/)	.	.	.	.
(32BB/	.	(32D/	.	(32G/	.	.	.	.
32GG/JJJ)	.	32G/JJJ)	.	32B/JJJ)	.	.	.	.
*Xrep	*	*Xrep	*	*Xrep	*	*	*	*
!!LO:LB:g=original
=70	=70	=70	=70	=70	=70	=70	=70	=70
(32FF#/LLL	.	(32D#/LLL	.	(32G#X/LLL	.	(8B#X/L	.	.
32GG#X/)	.	32BB#Xo</)	.	32A/)	.	.	.	.
(32GG#/	.	(32BB#/	.	(32A/	.	.	.	.
32FF#/)	.	32D#/)	.	32G#/)	.	.	.	.
(32EE/	.	(32E/	.	(32G#/	.	8c#/J)	.	.
32GG#/)	.	32C#/)	.	32A/)	.	.	.	.
(32GG#/	.	(32C#/	.	(32A/	.	.	.	.
32EE/JJJ)	.	32E/JJJ)	.	32G#/JJJ)	.	.	.	.
(32EE/LLL	.	(32G#/LLL	.	(32c#/LLL	.	8g#/L	.	.
32CC#/)	.	32E/)	.	32d#X/)	.	.	.	.
(32CC#/	.	(32E/	.	(32d#/	.	.	.	.
32EE/)	.	32G#/)	.	32c#/)	.	.	.	.
.	.	.	.	.	.	8qbn/	.	.
(32FF#/	.	(32A/	.	(32c#/	.	8a/J	.	.
32DD#X/)	.	32F#/)	.	32d#/)	.	.	.	.
(32DD#/	.	(32F#/	.	(32d#/	.	.	.	.
32FF#/JJJ)	.	32A/JJJ)	.	32c#/JJJ)	.	.	.	.
(32GG#/LLL	.	(32F#/LLL	.	(32B#X/LLL	.	8..g#/L	.	.
32DD#/)	.	32A/)	.	32c#/)	.	.	.	.
(32DD#/	.	(32A/	.	(32c#/	.	.	.	.
32GG#/)	.	32F#/)	.	32B#/)	.	.	.	.
(32GG#/	.	(32F#/	.	(32B#/	.	.	.	.
32DD#/)	.	32A/)	.	32c#/)	.	.	.	.
(32DD#/	.	(32A/	.	(32c#/	.	.	.	.
32GG#/JJJ)	.	32F#/JJJ)	.	32B#/JJJ)	.	(32d#/Jkk	<	.
=71	=71	=71	=71	=71	=71	=71	=71	=71
(32CC#/LLL	.	(32A/LLL	.	(32B#X/LLL	.	4.f#/)	[	.
32AA/)	.	32F#/)	.	32c#/)	.	.	.	.
(32AA/	.	(32F#/	.	(32c#/	.	.	.	.
32CC#/)	.	32A/)	.	32B#/)	.	.	.	.
(32CC#/	.	(32A/	.	(32B#/	.	.	.	.
32AA/)	.	32F#/)	.	32c#/)	.	.	.	.
(32AA/	.	(32F#/	.	(32c#/	.	.	.	.
32CC#/JJJ)	.	32A/JJJ)	.	32B#/JJJ)	.	.	.	.
(32CC#/LLL	.	(32G#/LLL	.	(32c#/LLL	.	.	.	.
32GG#/)	.	32E/)	.	32d#/)	.	.	.	.
(32GG#/	.	(32E/	.	(32d#/	.	.	.	.
32CC#/)	.	32G#/)	.	32c#/)	.	.	.	.
(32CC#/	.	(32G#/	.	(32c#/	.	(8e/L	.	.
32GG#/)	.	32E/)	.	32d#/)	.	.	.	.
(32GG#/	.	(32E/	.	(32d#/	.	.	.	.
32CC#/JJJ)	.	32G#/JJJ)	.	32c#/JJJ)	.	.	.	.
(32CC#/LLL	.	(32E/LLL	.	(32G#/LLL	.	8c#/	.	.
32EE/)	.	32C#/)	.	32A/)	.	.	.	.
(32EE/	.	(32C#/	.	(32A/	.	.	.	.
32CC#/)	.	32E/)	.	32G#/JJJ)	.	.	.	.
(32CC#/	.	(32E/	.	16G#/	.	8G#/J)	.	.
32EE/)	.	32C#/)	.	.	.	.	.	.
(32EE/	.	(32C#/	.	16r	.	.	.	.
32CC#/JJJ)	.	32E/JJJ)	.	.	.	.	.	.
!!LO:LB:g=original
=72	=72	=72	=72	=72	=72	=72	=72	=72
(32FF#/LLL	.	(32F#/LLL	.	2.r	.	(8A/L	.	.
32AA/)	.	32C#/)	.	.	.	.	.	.
(32AA/	.	(32C#/	.	.	.	.	.	.
32FF#/JJJ)	.	32F#/JJJ)	.	.	.	.	.	.
8FF#/	.	(32A/LLL	.	.	.	8c#/J)	.	.
.	.	32F#/	.	.	.	.	.	.
.	.	32C#/	.	.	.	.	.	.
.	.	32D#/JJJ)	.	.	.	.	.	.
!	!	!	!	!	!	!	!LO:HP:a	!
(32GG#/LLL	.	(32E/LLL	.	.	.	(8G#/L	>	.
32C#/)	.	32D#/)	.	.	.	.	.	.
(32C#/	.	(32D#/	.	.	.	.	.	.
32GG#/JJ)	.	32E/JJJ)	.	.	.	.	.	.
[8GG#/J	.	(32E/LLL	.	.	.	8c#/J)	.	.
.	.	32D#/)	.	.	.	.	.	.
.	.	(32E/	.	.	.	.	.	.
.	.	32A/JJJ)	.	.	.	.	.	.
8GG#/]	.	8F#/	.	.	.	(8B#X/L	]	.
8r	.	8r	.	.	.	8d#/J)	.	.
=73	=73	=73	=73	=73	=73	=73	=73	=73
!LO:TX:b:B:t=H:color=dodgerblue	!LO:DY:rj	!	!LO:DY:rj	!	!LO:DY:rj	!LO:TX:a:B:t=H:color=dodgerblue	!	!
8Dn 8GGn/	ff	8Fn/	ff	8dn 8B/	ff	8d#/	f	.
32.r	.	32.r	.	32.r	.	8r	.	.
64GGu/	.	64B 64Fu/	.	64c#u/	.	.	.	.
32.GG/LLL	.	32.BLLL 32.F/	.	32.d/LLL	.	.	.	.
64GG/JJJk	.	64BJJJk 64Dn/	.	64fn/JJJk	.	.	.	.
8GG/	.	8B 8D/	.	8f/	.	4r	.	.
!	!	!LO:N:vis=32	!	!	!	!	!	!
32.r	.	32.r	.	32.r	.	.	.	.
64GG/	.	64B 64D/	.	64e/	.	.	.	.
32.GG/LLL	.	32.BLLL 32.D/	.	32.f/LLL	.	.	.	.
64GG/JJJk	.	64BJJJk 64F/	.	64a-X/JJJk	.	.	.	.
8GG/	.	8B 8F/	.	8a-/	.	8r	.	.
32.r	.	32.r	.	32.r	.	16.r	.	.
64GG/	.	64B 64D/	.	64gn/	.	.	.	.
32.GG/LLL	.	32.BLLL 32.D/	.	32.f/LLL	.	.	.	.
!	!	!	!	!	!	!	!LO:DY:rj	!
.	.	.	.	.	.	32gg#\	f	.
64GG/JJJk	.	64BJJJk 64F/	.	64e-X/JJJk	.	.	.	.
=74	=74	=74	=74	=74	=74	=74	=74	=74
4GGn/	.	4B 4Fn/	.	4dn/	.	(8..ggn\L	.	.
.	.	.	.	.	.	32aa-X\Jkk)	.	.
4r	.	4r	.	4r	.	(8..aa-\L	.	.
.	.	.	.	.	.	32fn\Jkk)	.	.
4r	.	4r	.	4r	.	(16f\KL	.	.
.	.	.	.	.	.	8ee-X\	.	.
.	.	.	.	.	.	16ddn\Jk)	.	.
!!LO:PB:g=original
=75	=75	=75	=75	=75	=75	=75	=75	=75
!	!LO:DY:rj	!	!LO:DY:rj	!	!LO:DY:rj	!	!	!
8E 8GGn/	ff	8B/	ff	8c#/	ff	4ggn\	.	.
32.r	.	32.r	.	32.r	.	.	.	.
64E 64GG/	.	64B/	.	64B#X/	.	.	.	.
32.ELLL 32.GG/	.	32.B/LLL	.	32.c#/LLL	.	.	.	.
64GG/JJJk	.	64BJJJk 64C#/	.	64e/JJJk	.	.	.	.
8GG/	.	8B 8C#/	.	8e/	.	4r	.	.
!LO:N:vis=32	!	!	!	!	!	!	!	!
32.r	.	32.r	.	32.r	.	.	.	.
64GG/	.	64B 64E/	.	64d#X/	.	.	.	.
32.GG/LLL	.	32.BLLL 32.E/	.	32.e/LLL	.	.	.	.
64FF#/JJJk	.	64A#XJJJk 64E/	.	64gn/JJJk	.	.	.	.
8FF#/	.	8A# 8E/	.	8g/	.	8r	.	.
32.r	.	32.r	.	32.r	.	16.r	.	.
64FF#/	.	64E/	.	64g 64A#X/	.	.	.	.
32.FF#/LLL	.	32.E/LLL	.	32.f#LLL 32.A#/	.	.	.	.
.	.	.	.	.	.	32ccc#\	ff	.
64FF#/JJJk	.	64Fn/JJJk	.	64eJJJk 64A#/	.	.	.	.
=76	=76	=76	=76	=76	=76	=76	=76	=76
!	!	!	!	!	!	!LO:N:vis=8.	!	!
8FF#/	.	8F#/	.	8dn 8B/	.	(8..ccc#\L	.	.
32.r	.	32.r	.	32.r	.	.	.	.
64FF#/	.	64B 64F#/	.	64c#/	.	.	.	.
32.FF#/LLL	.	32.BLLL 32.F#/	.	32.d/LLL	.	.	.	.
.	.	.	.	.	.	32dddn\Jkk)	.	.
64FF#/JJJk	.	64BJJJk 64Dn/	.	64f#/JJJk	.	.	.	.
!	!	!	!	!	!	!LO:N:vis=8.	!	!
8FF#/	.	8B 8D/	.	8f#/	.	(8..ddd\L	.	.
8r	.	8r	.	8r	.	.	.	.
.	.	.	.	.	.	32b\Jkk)	.	.
4r	.	4r	.	4r	.	(16b\KL	.	.
.	.	.	.	.	.	8ggn\	.	.
.	.	.	.	.	.	16ff#\Jk)	.	.
=77	=77	=77	=77	=77	=77	=77	=77	=77
!	!LO:DY:rj	!	!LO:DY:rj	!	!LO:DY:rj	!LO:N:vis=8.	!	!
8FFn/	ff	8B 8Dn/	ff	8dn/	ff	(8..bb\L	.	.
32.r	.	32.r	.	32.r	.	.	.	.
64FF/	.	64B 64D/	.	64c#/	.	.	.	.
32.FF/LLL	.	32.BLLL 32.D/	.	32.d/LLL	.	.	.	.
.	.	.	.	.	.	32dddn\Jkk)	.	.
64EE/JJJk	.	64BJJJk 64D/	.	64g#X/JJJk	.	.	.	.
!	!	!	!	!	!	!LO:N:vis=8.	!	!
4EE/	.	4B 4D/	.	4g#/	.	(8..ddd\L	.	.
.	.	.	.	.	.	32b\Jkk)	.	.
4r	.	4r	.	4r	.	16b\KL	.	.
.	.	.	.	.	.	8aa\	.	.
.	.	.	.	.	.	16gg#X\Jk	.	.
!!LO:LB:g=original
=78	=78	=78	=78	=78	=78	=78	=78	=78
8DD#X/	.	8B#X 8F#/	.	8g#/	.	(8..bb#X\L	.	.
32.r	.	32.r	.	32.r	.	.	.	.
64DD#/	.	64B# 64F#/	.	64f##X/	.	.	.	.
32.DD#/LLL	.	32.B#LLL 32.F#/	.	32.f##/LLL	.	.	.	.
.	.	.	.	.	.	32ddd#X\Jkk)	.	.
64DD#/JJJk	.	64B#JJJk 64F#/	.	64g#/JJJk	.	.	.	.
2DD#^/	.	2B# 2F#^/	.	2g#^/	.	8..ddd#\L	.	.
.	.	.	.	.	.	(32b#X\Jkk	.	.
.	.	.	.	.	.	24dd#\LL	.	.
.	.	.	.	.	.	24ff#\	.	.
.	.	.	.	.	.	24gg#\JJ	.	.
.	.	.	.	.	.	24bb#\LL)	.	.
.	.	.	.	.	.	24ddd#\	.	.
.	.	.	.	.	.	24ggg#\JJ	.	.
=79	=79	=79	=79	=79	=79	=79	=79	=79
!	!	!	!	!	!	!LO:TX:b:i:t=con passione	!	!
8CC#/	.	8c# 8E/	.	8g#/	.	[4ggg#\	.	.
32.r	.	32.r	.	32.r	.	.	.	.
64CC#/	.	64c# 64E/	.	64f##X/	.	.	.	.
32.CC#/LLL	.	32.c#LLL 32.E/	.	32.f##/LLL	.	.	.	.
64CC#/JJJk	.	64c#JJJk 64E/	.	64g#/JJJk	.	.	.	.
8CC#/	.	8c# 8E/	.	8g#/	.	24ggg#\LL]	.	.
.	.	.	.	.	.	(24fff#\	.	.
.	.	.	.	.	.	24eee\JJ	.	.
8r	.	8r	.	8r	.	24ccc#\LL)	.	.
.	.	.	.	.	.	24bb#X\	.	.
.	.	.	.	.	.	24aa\JJ	.	.
8r	.	8r	.	8r	.	(24gg#\LL	.	.
.	.	.	.	.	.	24ff#\)	.	.
.	.	.	.	.	.	(24ee\JJ	.	.
!	!LO:DY:rj	!	!LO:DY:rj	!	!LO:DY:rj	!	!	!
8EEu/	f	8c# 8C#u/	f	8G#u/	f	16.ddd#\LL	.	.
.	.	.	.	.	.	32ccc#\JJk)	.	.
=80	=80	=80	=80	=80	=80	=80	=80	=80
32.FF#/LLL	.	32.c#LLL 32.D#/	.	32.A/LLL	.	[8bbn\L	.	.
64FF#/K	.	64B#XK 64D#/	.	64G#/K	.	.	.	.
32.FF#/	.	32.B# 32.D#/	.	32.G#/	.	.	.	.
64FF#/JJJk	.	64c#JJJk 64D#/	.	64A/JJJk	.	.	.	.
[8FF#/	.	[8c# [8D#/	.	[8A/	.	24bb\L]	.	.
.	.	.	.	.	.	24aa\	.	.
.	.	.	.	.	.	24gg#\JJ	.	.
4FF#/]	.	4c#] 4D#/]	.	4A/]	.	24ff#\LL	.	.
.	.	.	.	.	.	24dd#\	.	.
.	.	.	.	.	.	(24ee\JJ	.	.
.	.	.	.	.	.	24ff#\LL	.	.
.	.	.	.	.	.	24gg#\	.	.
.	.	.	.	.	.	24aa\JJ	.	.
4r	.	4r	.	4r	.	24ccc#\LL)	.	.
.	.	.	.	.	.	24bb\	.	.
.	.	.	.	.	.	24aa\JJ	.	.
.	.	.	.	.	.	(24ee#X\LL	.	.
.	.	.	.	.	.	24ff#\	.	.
.	.	.	.	.	.	[24aa\JJ	.	.
!!LO:LB:g=original
=81	=81	=81	=81	=81	=81	=81	=81	=81
[4GG#^/	.	[4c# [4E^/	.	[<4e [4G#^/	.	24aa\LL])	.	.
.	.	.	.	.	.	24ff##X\	.	.
.	.	.	.	.	.	[24gg#^\JJ	.	.
.	.	.	.	.	.	24gg#\LL]	.	.
.	.	.	.	.	.	24dd#\	.	.
.	.	.	.	.	.	[24ee^\JJ	.	.
8GG#/]	.	8c#] 8E/]	.	8e] 8G#/]	.	24ee\LL]	.	.
.	.	.	.	.	.	24b#X\	.	.
.	.	.	.	.	.	[24dd#^\JJ	.	.
8r	.	8r	.	8r	.	48dd#\LLL]	.	.
.	.	.	.	.	.	(48cc#\	.	.
.	.	.	.	.	.	48b#\	.	.
.	.	.	.	.	.	48cc#\	.	.
.	.	.	.	.	.	48a\	.	.
.	.	.	.	.	.	48g#\JJJ	.	.
4r	.	4r	.	4r	.	48f##X/LLL	.	.
.	.	.	.	.	.	48g#/	.	.
.	.	.	.	.	.	48a/	.	.
.	.	.	.	.	.	48g#/	.	.
.	.	.	.	.	.	48cc#/	.	.
.	.	.	.	.	.	48e/JJJ	.	.
.	.	.	.	.	.	48d#/LLL	.	.
.	.	.	.	.	.	48e/	.	.
.	.	.	.	.	.	48e#X/	.	.
!	!	!	!	!	!	!LO:N:acc=n#	!	!
.	.	.	.	.	.	48f#X/	.	.
.	.	.	.	.	.	48f##X/	.	.
.	.	.	.	.	.	48g#/JJJ)	.	.
=82	=82	=82	=82	=82	=82	=82	=82	=82
8r	.	8r	.	8r	.	[8a/L	.	.
!	!LO:DY:rj	!	!LO:DY:rj	!	!LO:DY:rj	!	!	!
4GG#^/	f	4F#^/	f	4B#X^/	f	24a/L]	.	.
.	.	.	.	.	.	(24c##X/	.	.
.	.	.	.	.	.	[24d#/JJ	.	.
.	.	.	.	.	.	24d#/LL])	.	.
.	.	.	.	.	.	(24a/	.	.
.	.	.	.	.	.	[24g#/JJ	.	.
8GG#/	.	8F#/	.	8B#/	.	24g#/LL])	.	.
!	!	!	!	!	!	!LO:N:acc=n#	!	!
.	.	.	.	.	.	24f#X/	.	.
.	.	.	.	.	.	24e/JJ	.	.
4r	.	4r	.	4r	.	24d#/LL	.	.
!	!	!	!	!	!	!LO:N:acc=n#	!	!
.	.	.	.	.	.	24c#X/	.	.
.	.	.	.	.	.	(24B#X/JJ	.	.
.	.	.	.	.	.	24A/LL	.	.
.	.	.	.	.	.	24G#/	.	.
.	.	.	.	.	.	24e/JJ)	.	.
!!LO:LB:g=original
=83	=83	=83	=83	=83	=83	=83	=83	=83
!	!LO:DY:rj	!	!LO:DY:rj	!	!LO:DY:rj	!	!	!
8GG# 8CC#/	p	8E/	p	8G#/	p	(8d#/L	.	.
32.r	.	32.r	.	32.r	.	8c#/J)	.	.
64GG# 64CC#/	.	64E/	.	64G#/	.	.	.	.
32.GG#LLL 32.CC#/	.	32.E/LLL	.	32.A/LLL	.	.	.	.
64GG#JJJk 64CC#/	.	64E/JJJk	.	64c#/JJJk	.	.	.	.
8GG# 8CC#/	.	8E/	.	8c#/	.	4r	.	.
32.r	.	32.r	.	32.r	.	.	.	.
64GG# 64CC#/	.	64E/	.	64B#X/	.	.	.	.
32.GG#LLL 32.CC#/	<[	32.E/LLL	<[	32.c#/LLL	<[	.	.	.
64GG#JJJk 64CC#/	.	64G#JJJk/	.	64eJJJk 64c#/	.	.	.	.
4AA 4CC#^/	.	4F#^/	.	4f# 4c#^/	.	8r	.	.
!	!	!	!	!	!	!	!LO:DY:rj	!
.	>	.	>	.	>	(16cc#\LL	p	.
.	.	.	.	.	.	16bb\JJ)	.	.
=84	=84	=84	=84	=84	=84	=84	=84	=84
8GG# 8CC#/	]	8G#/	]	8e 8c#/	]	(8aa\L	.	.
32.r	.	32.r	.	32.r	.	8gg#\J)	.	.
64GG# 64CC#/	.	64E/	.	64B#X/	.	.	.	.
32.GG#LLL 32.CC#/	.	32.E/LLL	.	32.c#/LLL	.	.	.	.
64GG#JJJk 64CC#/	.	64G#/JJJk	.	64eJJJk 64c#/	.	.	.	.
8GG# 8CC#/	.	8G#/	.	8e 8c#/	.	4r	.	.
32.r	.	32.r	.	32.r	.	.	.	.
64GG# 64CC#/	.	64G#/	.	64d# 64c#/	.	.	.	.
32.GG#LLL 32.CC#/	<[	32.G#/LLL	<[	32.eLLL 32.c#/	<[	.	.	.
64GG#JJJk 64CC#/	.	64eJJJk 64G#/	.	64g#JJJk 64c#/	.	.	.	.
4GG# 4CC#^/	.	4f# 4G#^/	.	4g# 4B#X^/	.	8r	.	.
!	!	!	!	!	!	!	!LO:DY:rj	!
.	>	.	>	.	>	(16gg#\LL	p	.
.	]]	.	]]	.	]]	16eee\JJ)	.	.
!!LO:PB:g=original
=85	=85	=85	=85	=85	=85	=85	=85	=85
!	!LO:DY:rj	!	!LO:DY:rj	!	!LO:DY:rj	!	!	!
8GG# 8CC#/	p	8e 8G#/	p	8g# 8c#/	p	(8ddd#\L	.	.
32.r	.	32.r	.	32.r	.	[8ccc#\J	.	.
64CC#/	.	64G# 64E/	.	64B#X/	.	.	.	.
32.CC#/LLL	.	32.G#LLL 32.E/	.	32.c#/LLL	.	.	.	.
64CC#/JJJk	.	64G#/JJJk	.	64eJJJk 64c#/	.	.	.	.
!	!	!	!LO:HP:t=diminuendo	!	!LO:HP:t=diminuendo	!	!	!
8CC#/	.	8G#/	>	8e 8c#/	>	8ccc#\])	.	.
!	!LO:HP:t=diminuendo	!	!	!	!	!	!	!
32.r	>	32.r	.	32.r	.	32.r	.	.
!	!	!	!	!	!	!LO:N:vis=32	!LO:DY:rj	!
64CC#/	.	64G#/	.	64e 64c#/	.	64ddd#u\	pp	.
32.CC#/LLL	.	32.G#/LLL	.	32.eLLL 32.c#/	.	32.eee\LLL	.	.
64CC#/JJJk	.	64G#/JJJk	.	64eJJJk 64c#/	.	64ggg#\JJJk	.	.
8CC#/	.	8G#/	.	8e 8c#/	.	8ggg#\	.	.
!LO:N:vis=32	!	!	!	!	!	!	!	!
32.r	.	32.r	.	32.r	.	32.r	.	.
64CC#/	.	64E/	.	64e 64c#/	.	64fff##X\	.	.
32.CC#/LLL	.	32.E/LLL	.	32.eLLL 32.c#/	.	32.ggg#\LLL	.	.
64CC#/JJJk	.	64eJJJk 64E/	.	64G#/JJJk	.	64cccc#\JJJk	.	.
=86	=86	=86	=86	=86	=86	=86	=86	=86
8CC#/	.	8e 8E/	.	8G#/	.	2.eeeeo\	.	.
32.r	.	32.r	.	32.r	.	.	.	.
64BBB#X/	.	64e 64E/	.	64A#X/	.	.	.	.
32.BBB#^/LLL	.	32.eLLL 32.E\	.	32.A#^>/LLL	.	.	.	.
64CC#/JJJk	.	64eJJJk 64E\	.	64G#/JJJk	.	.	.	.
8CC#/	.	8e 8E\	.	8G#/	.	.	.	.
32.r	.	32.r	.	32.r	.	.	.	.
64BBB#/	.	64e 64E\	.	64B/	.	.	.	.
32.BBB#^/LLL	.	32.eLLL 32.E\	.	32.A#^>/LLL	.	.	.	.
64CC#/JJJk	.	64eJJJk 64E\	.	64G#/JJJk	.	.	.	.
8CC#/	.	8e 8E\	.	8G#/	.	.	.	.
32.r	.	32.r	.	32.r	.	.	.	.
!LO:TX:a:i:t=sosten	!	!LO:TX:a:i:t=sosten	!	!LO:TX:a:i:t=sosten	!	!	!	!
64BBB#/	.	64e 64E\	.	64B/	.	.	.	.
32.BBB#^/LLL	.	32.eLLL 32.E\	.	32.An^>/LLL	.	.	.	.
64CC#/JJJk	.	64eJJJk 64E\	.	64G#/JJJk	.	.	.	.
!!LO:LB:g=original
=87	=87	=87	=87	=87	=87	=87	=87	=87
!	!	!	!	!	!	!LO:N:vis=2	!	!
4CC#/	.	4e 4E/	.	4G#/	.	[2.eeee\	.	.
4r	.	4r	.	4r	.	.	.	.
!	!LO:DY:rj	!	!LO:DY:rj	!	!LO:DY:rj	!	!	!
4c#\	ppp	4cc# 4g#\	ppp	4ccc# 4ee\	ppp	.	.	.
=88	=88	=88	=88	=88	=88	=88	=88	=88
2.c#;\	.	2.cc# 2.g#;\	.	2.ccc# 2.ee;\	.	2.eeee;\]	.	.
==	==	==	==	==	==	==	==	==
*-	*-	*-	*-	*-	*-	*-	*-	*-
!!!system-decoration: {(s1,s2,s3,s4)}
!!!RDF**kern: > = above
!!!RDF**kern: < = below
!!!AIN: 3 cello 1 viola
!!!ENC: Andrzej Kubiczek
!!!END: 2021-08-27
!!!ENC: Anastazja Marusiak
!!!END: 2021-07-26
